(G-CODE GENERATED BY FLATCAM v8.994 - www.flatcam.org - Version Date: 2020/11/7)

(Name: B_A_ - CADCAM Drill TOP-BOT Plated.GBR_iso_combined_cnc)
(Type: G-code from Geometry)
(Units: MM)

(Created on Thursday, 28 September 2023 at 01:30)

(This preprocessor is used with a motion controller loaded with GRBL firmware. )
(It is for the case when it is used together with a LASER connected on the SPINDLE connector.)

(Feedrate: 500.0 mm/min)
(Feedrate rapids: 1500.0 mm/min)

(Z Focus: 2.0 mm)
(Steps per circle: 64)
(Preprocessor Geometry: GRBL_laser)

(X range:   54.4500 ...   95.9926  mm)
(Y range:   43.5300 ...   75.9616  mm)

(Laser Power - Spindle Speed: 1500.0)

G21
G90
G17
G94

G01 F500.00

M5
G01 F500.00
G00 X59.1949 Y44.0825
G01 F60.00
M03 S1500.0
G01 F500.00
G01 X59.1924 Y44.1339 F500.00
G01 X59.1844 Y44.1873 F500.00
G01 X59.1713 Y44.2397 F500.00
G01 X59.1531 Y44.2905 F500.00
G01 X59.1301 Y44.3393 F500.00
G01 X59.1023 Y44.3856 F500.00
G01 X59.0702 Y44.4289 F500.00
G01 X59.0339 Y44.4689 F500.00
G01 X58.9939 Y44.5052 F500.00
G01 X58.9506 Y44.5373 F500.00
G01 X58.9043 Y44.5651 F500.00
G01 X58.8555 Y44.5881 F500.00
G01 X58.8047 Y44.6063 F500.00
G01 X58.7523 Y44.6194 F500.00
G01 X58.6989 Y44.6274 F500.00
G01 X58.6450 Y44.6300 F500.00
G01 X58.5911 Y44.6274 F500.00
G01 X58.5377 Y44.6194 F500.00
G01 X58.4853 Y44.6063 F500.00
G01 X58.4345 Y44.5881 F500.00
G01 X58.3857 Y44.5651 F500.00
G01 X58.3394 Y44.5373 F500.00
G01 X58.2961 Y44.5052 F500.00
G01 X58.2561 Y44.4689 F500.00
G01 X58.2198 Y44.4289 F500.00
G01 X58.1877 Y44.3856 F500.00
G01 X58.1599 Y44.3393 F500.00
G01 X58.1369 Y44.2905 F500.00
G01 X58.1187 Y44.2397 F500.00
G01 X58.1056 Y44.1873 F500.00
G01 X58.0976 Y44.1339 F500.00
G01 X58.0950 Y44.0800 F500.00
G01 X58.0976 Y44.0261 F500.00
G01 X58.1056 Y43.9727 F500.00
G01 X58.1187 Y43.9203 F500.00
G01 X58.1369 Y43.8695 F500.00
G01 X58.1599 Y43.8207 F500.00
G01 X58.1877 Y43.7744 F500.00
G01 X58.2198 Y43.7311 F500.00
G01 X58.2561 Y43.6911 F500.00
G01 X58.2961 Y43.6548 F500.00
G01 X58.3394 Y43.6227 F500.00
G01 X58.3857 Y43.5949 F500.00
G01 X58.4345 Y43.5719 F500.00
G01 X58.4853 Y43.5537 F500.00
G01 X58.5377 Y43.5406 F500.00
G01 X58.5911 Y43.5326 F500.00
G01 X58.6450 Y43.5300 F500.00
G01 X58.6989 Y43.5326 F500.00
G01 X58.7523 Y43.5406 F500.00
G01 X58.8047 Y43.5537 F500.00
G01 X58.8555 Y43.5719 F500.00
G01 X58.9043 Y43.5949 F500.00
G01 X58.9506 Y43.6227 F500.00
G01 X58.9939 Y43.6548 F500.00
G01 X59.0339 Y43.6911 F500.00
G01 X59.0702 Y43.7311 F500.00
G01 X59.1023 Y43.7744 F500.00
G01 X59.1301 Y43.8207 F500.00
G01 X59.1531 Y43.8695 F500.00
G01 X59.1713 Y43.9203 F500.00
G01 X59.1844 Y43.9727 F500.00
G01 X59.1924 Y44.0261 F500.00
G01 X59.1949 Y44.0825 F500.00
M5
G00 X61.7349 Y59.3225
G01 F60.00
M03 S1500.0
G01 F500.00
G01 X61.7324 Y59.3739 F500.00
G01 X61.7244 Y59.4273 F500.00
G01 X61.7113 Y59.4797 F500.00
G01 X61.6931 Y59.5305 F500.00
G01 X61.6701 Y59.5793 F500.00
G01 X61.6423 Y59.6256 F500.00
G01 X61.6102 Y59.6689 F500.00
G01 X61.5739 Y59.7089 F500.00
G01 X61.5339 Y59.7452 F500.00
G01 X61.4906 Y59.7773 F500.00
G01 X61.4443 Y59.8051 F500.00
G01 X61.3955 Y59.8281 F500.00
G01 X61.3447 Y59.8463 F500.00
G01 X61.2923 Y59.8594 F500.00
G01 X61.2389 Y59.8674 F500.00
G01 X61.1850 Y59.8700 F500.00
G01 X61.1311 Y59.8674 F500.00
G01 X61.0777 Y59.8594 F500.00
G01 X61.0253 Y59.8463 F500.00
G01 X60.9745 Y59.8281 F500.00
G01 X60.9257 Y59.8051 F500.00
G01 X60.8794 Y59.7773 F500.00
G01 X60.8361 Y59.7452 F500.00
G01 X60.7961 Y59.7089 F500.00
G01 X60.7598 Y59.6689 F500.00
G01 X60.7277 Y59.6256 F500.00
G01 X60.6999 Y59.5793 F500.00
G01 X60.6769 Y59.5305 F500.00
G01 X60.6587 Y59.4797 F500.00
G01 X60.6456 Y59.4273 F500.00
G01 X60.6376 Y59.3739 F500.00
G01 X60.6350 Y59.3200 F500.00
G01 X60.6376 Y59.2661 F500.00
G01 X60.6456 Y59.2127 F500.00
G01 X60.6587 Y59.1603 F500.00
G01 X60.6769 Y59.1095 F500.00
G01 X60.6999 Y59.0607 F500.00
G01 X60.7277 Y59.0144 F500.00
G01 X60.7598 Y58.9711 F500.00
G01 X60.7961 Y58.9311 F500.00
G01 X60.8361 Y58.8948 F500.00
G01 X60.8794 Y58.8627 F500.00
G01 X60.9257 Y58.8349 F500.00
G01 X60.9745 Y58.8119 F500.00
G01 X61.0253 Y58.7937 F500.00
G01 X61.0777 Y58.7806 F500.00
G01 X61.1311 Y58.7726 F500.00
G01 X61.1850 Y58.7700 F500.00
G01 X61.2389 Y58.7726 F500.00
G01 X61.2923 Y58.7806 F500.00
G01 X61.3447 Y58.7937 F500.00
G01 X61.3955 Y58.8119 F500.00
G01 X61.4443 Y58.8349 F500.00
G01 X61.4906 Y58.8627 F500.00
G01 X61.5339 Y58.8948 F500.00
G01 X61.5739 Y58.9311 F500.00
G01 X61.6102 Y58.9711 F500.00
G01 X61.6423 Y59.0144 F500.00
G01 X61.6701 Y59.0607 F500.00
G01 X61.6931 Y59.1095 F500.00
G01 X61.7113 Y59.1603 F500.00
G01 X61.7244 Y59.2127 F500.00
G01 X61.7324 Y59.2661 F500.00
G01 X61.7349 Y59.3225 F500.00
M5
G00 X66.8149 Y59.3225
G01 F60.00
M03 S1500.0
G01 F500.00
G01 X66.8124 Y59.3739 F500.00
G01 X66.8044 Y59.4273 F500.00
G01 X66.7913 Y59.4797 F500.00
G01 X66.7731 Y59.5305 F500.00
G01 X66.7501 Y59.5793 F500.00
G01 X66.7223 Y59.6256 F500.00
G01 X66.6902 Y59.6689 F500.00
G01 X66.6539 Y59.7089 F500.00
G01 X66.6139 Y59.7452 F500.00
G01 X66.5706 Y59.7773 F500.00
G01 X66.5243 Y59.8051 F500.00
G01 X66.4755 Y59.8281 F500.00
G01 X66.4247 Y59.8463 F500.00
G01 X66.3723 Y59.8594 F500.00
G01 X66.3189 Y59.8674 F500.00
G01 X66.2650 Y59.8700 F500.00
G01 X66.2111 Y59.8674 F500.00
G01 X66.1577 Y59.8594 F500.00
G01 X66.1053 Y59.8463 F500.00
G01 X66.0545 Y59.8281 F500.00
G01 X66.0057 Y59.8051 F500.00
G01 X65.9594 Y59.7773 F500.00
G01 X65.9161 Y59.7452 F500.00
G01 X65.8761 Y59.7089 F500.00
G01 X65.8398 Y59.6689 F500.00
G01 X65.8077 Y59.6256 F500.00
G01 X65.7799 Y59.5793 F500.00
G01 X65.7569 Y59.5305 F500.00
G01 X65.7387 Y59.4797 F500.00
G01 X65.7256 Y59.4273 F500.00
G01 X65.7176 Y59.3739 F500.00
G01 X65.7150 Y59.3200 F500.00
G01 X65.7176 Y59.2661 F500.00
G01 X65.7256 Y59.2127 F500.00
G01 X65.7387 Y59.1603 F500.00
G01 X65.7569 Y59.1095 F500.00
G01 X65.7799 Y59.0607 F500.00
G01 X65.8077 Y59.0144 F500.00
G01 X65.8398 Y58.9711 F500.00
G01 X65.8761 Y58.9311 F500.00
G01 X65.9161 Y58.8948 F500.00
G01 X65.9594 Y58.8627 F500.00
G01 X66.0057 Y58.8349 F500.00
G01 X66.0545 Y58.8119 F500.00
G01 X66.1053 Y58.7937 F500.00
G01 X66.1577 Y58.7806 F500.00
G01 X66.2111 Y58.7726 F500.00
G01 X66.2650 Y58.7700 F500.00
G01 X66.3189 Y58.7726 F500.00
G01 X66.3723 Y58.7806 F500.00
G01 X66.4247 Y58.7937 F500.00
G01 X66.4755 Y58.8119 F500.00
G01 X66.5243 Y58.8349 F500.00
G01 X66.5706 Y58.8627 F500.00
G01 X66.6139 Y58.8948 F500.00
G01 X66.6539 Y58.9311 F500.00
G01 X66.6902 Y58.9711 F500.00
G01 X66.7223 Y59.0144 F500.00
G01 X66.7501 Y59.0607 F500.00
G01 X66.7731 Y59.1095 F500.00
G01 X66.7913 Y59.1603 F500.00
G01 X66.8044 Y59.2127 F500.00
G01 X66.8124 Y59.2661 F500.00
G01 X66.8149 Y59.3225 F500.00
M5
G00 X73.2709 Y66.3355
G01 F60.00
M03 S1500.0
G01 F500.00
G01 X73.2684 Y66.3869 F500.00
G01 X73.2604 Y66.4403 F500.00
G01 X73.2473 Y66.4927 F500.00
G01 X73.2291 Y66.5435 F500.00
G01 X73.2061 Y66.5923 F500.00
G01 X73.1783 Y66.6386 F500.00
G01 X73.1462 Y66.6819 F500.00
G01 X73.1099 Y66.7219 F500.00
G01 X73.0699 Y66.7582 F500.00
G01 X73.0266 Y66.7903 F500.00
G01 X72.9803 Y66.8181 F500.00
G01 X72.9315 Y66.8411 F500.00
G01 X72.8807 Y66.8593 F500.00
G01 X72.8283 Y66.8724 F500.00
G01 X72.7749 Y66.8804 F500.00
G01 X72.7210 Y66.8830 F500.00
G01 X72.6671 Y66.8804 F500.00
G01 X72.6137 Y66.8724 F500.00
G01 X72.5613 Y66.8593 F500.00
G01 X72.5105 Y66.8411 F500.00
G01 X72.4617 Y66.8181 F500.00
G01 X72.4154 Y66.7903 F500.00
G01 X72.3721 Y66.7582 F500.00
G01 X72.3321 Y66.7219 F500.00
G01 X72.2958 Y66.6819 F500.00
G01 X72.2637 Y66.6386 F500.00
G01 X72.2359 Y66.5923 F500.00
G01 X72.2129 Y66.5435 F500.00
G01 X72.1947 Y66.4927 F500.00
G01 X72.1816 Y66.4403 F500.00
G01 X72.1736 Y66.3869 F500.00
G01 X72.1710 Y66.3330 F500.00
G01 X72.1736 Y66.2791 F500.00
G01 X72.1816 Y66.2257 F500.00
G01 X72.1947 Y66.1733 F500.00
G01 X72.2129 Y66.1225 F500.00
G01 X72.2359 Y66.0737 F500.00
G01 X72.2637 Y66.0274 F500.00
G01 X72.2958 Y65.9841 F500.00
G01 X72.3321 Y65.9441 F500.00
G01 X72.3721 Y65.9078 F500.00
G01 X72.4154 Y65.8757 F500.00
G01 X72.4617 Y65.8479 F500.00
G01 X72.5105 Y65.8249 F500.00
G01 X72.5613 Y65.8067 F500.00
G01 X72.6137 Y65.7936 F500.00
G01 X72.6671 Y65.7856 F500.00
G01 X72.7210 Y65.7830 F500.00
G01 X72.7749 Y65.7856 F500.00
G01 X72.8283 Y65.7936 F500.00
G01 X72.8807 Y65.8067 F500.00
G01 X72.9315 Y65.8249 F500.00
G01 X72.9803 Y65.8479 F500.00
G01 X73.0266 Y65.8757 F500.00
G01 X73.0699 Y65.9078 F500.00
G01 X73.1099 Y65.9441 F500.00
G01 X73.1462 Y65.9841 F500.00
G01 X73.1783 Y66.0274 F500.00
G01 X73.2061 Y66.0737 F500.00
G01 X73.2291 Y66.1225 F500.00
G01 X73.2473 Y66.1733 F500.00
G01 X73.2604 Y66.2257 F500.00
G01 X73.2684 Y66.2791 F500.00
G01 X73.2709 Y66.3355 F500.00
M5
G00 X75.8109 Y66.3355
G01 F60.00
M03 S1500.0
G01 F500.00
G01 X75.8084 Y66.3869 F500.00
G01 X75.8004 Y66.4403 F500.00
G01 X75.7873 Y66.4927 F500.00
G01 X75.7691 Y66.5435 F500.00
G01 X75.7461 Y66.5923 F500.00
G01 X75.7183 Y66.6386 F500.00
G01 X75.6862 Y66.6819 F500.00
G01 X75.6499 Y66.7219 F500.00
G01 X75.6099 Y66.7582 F500.00
G01 X75.5666 Y66.7903 F500.00
G01 X75.5203 Y66.8181 F500.00
G01 X75.4715 Y66.8411 F500.00
G01 X75.4207 Y66.8593 F500.00
G01 X75.3683 Y66.8724 F500.00
G01 X75.3149 Y66.8804 F500.00
G01 X75.2610 Y66.8830 F500.00
G01 X75.2071 Y66.8804 F500.00
G01 X75.1537 Y66.8724 F500.00
G01 X75.1013 Y66.8593 F500.00
G01 X75.0505 Y66.8411 F500.00
G01 X75.0017 Y66.8181 F500.00
G01 X74.9554 Y66.7903 F500.00
G01 X74.9121 Y66.7582 F500.00
G01 X74.8721 Y66.7219 F500.00
G01 X74.8358 Y66.6819 F500.00
G01 X74.8037 Y66.6386 F500.00
G01 X74.7759 Y66.5923 F500.00
G01 X74.7529 Y66.5435 F500.00
G01 X74.7347 Y66.4927 F500.00
G01 X74.7216 Y66.4403 F500.00
G01 X74.7136 Y66.3869 F500.00
G01 X74.7110 Y66.3330 F500.00
G01 X74.7136 Y66.2791 F500.00
G01 X74.7216 Y66.2257 F500.00
G01 X74.7347 Y66.1733 F500.00
G01 X74.7529 Y66.1225 F500.00
G01 X74.7759 Y66.0737 F500.00
G01 X74.8037 Y66.0274 F500.00
G01 X74.8358 Y65.9841 F500.00
G01 X74.8721 Y65.9441 F500.00
G01 X74.9121 Y65.9078 F500.00
G01 X74.9554 Y65.8757 F500.00
G01 X75.0017 Y65.8479 F500.00
G01 X75.0505 Y65.8249 F500.00
G01 X75.1013 Y65.8067 F500.00
G01 X75.1537 Y65.7936 F500.00
G01 X75.2071 Y65.7856 F500.00
G01 X75.2610 Y65.7830 F500.00
G01 X75.3149 Y65.7856 F500.00
G01 X75.3683 Y65.7936 F500.00
G01 X75.4207 Y65.8067 F500.00
G01 X75.4715 Y65.8249 F500.00
G01 X75.5203 Y65.8479 F500.00
G01 X75.5666 Y65.8757 F500.00
G01 X75.6099 Y65.9078 F500.00
G01 X75.6499 Y65.9441 F500.00
G01 X75.6862 Y65.9841 F500.00
G01 X75.7183 Y66.0274 F500.00
G01 X75.7461 Y66.0737 F500.00
G01 X75.7691 Y66.1225 F500.00
G01 X75.7873 Y66.1733 F500.00
G01 X75.8004 Y66.2257 F500.00
G01 X75.8084 Y66.2791 F500.00
G01 X75.8109 Y66.3355 F500.00
M5
G00 X78.3509 Y66.3355
G01 F60.00
M03 S1500.0
G01 F500.00
G01 X78.3484 Y66.3869 F500.00
G01 X78.3404 Y66.4403 F500.00
G01 X78.3273 Y66.4927 F500.00
G01 X78.3091 Y66.5435 F500.00
G01 X78.2861 Y66.5923 F500.00
G01 X78.2583 Y66.6386 F500.00
G01 X78.2262 Y66.6819 F500.00
G01 X78.1899 Y66.7219 F500.00
G01 X78.1499 Y66.7582 F500.00
G01 X78.1066 Y66.7903 F500.00
G01 X78.0603 Y66.8181 F500.00
G01 X78.0115 Y66.8411 F500.00
G01 X77.9607 Y66.8593 F500.00
G01 X77.9083 Y66.8724 F500.00
G01 X77.8549 Y66.8804 F500.00
G01 X77.8010 Y66.8830 F500.00
G01 X77.7471 Y66.8804 F500.00
G01 X77.6937 Y66.8724 F500.00
G01 X77.6413 Y66.8593 F500.00
G01 X77.5905 Y66.8411 F500.00
G01 X77.5417 Y66.8181 F500.00
G01 X77.4954 Y66.7903 F500.00
G01 X77.4521 Y66.7582 F500.00
G01 X77.4121 Y66.7219 F500.00
G01 X77.3758 Y66.6819 F500.00
G01 X77.3437 Y66.6386 F500.00
G01 X77.3159 Y66.5923 F500.00
G01 X77.2929 Y66.5435 F500.00
G01 X77.2747 Y66.4927 F500.00
G01 X77.2616 Y66.4403 F500.00
G01 X77.2536 Y66.3869 F500.00
G01 X77.2510 Y66.3330 F500.00
G01 X77.2536 Y66.2791 F500.00
G01 X77.2616 Y66.2257 F500.00
G01 X77.2747 Y66.1733 F500.00
G01 X77.2929 Y66.1225 F500.00
G01 X77.3159 Y66.0737 F500.00
G01 X77.3437 Y66.0274 F500.00
G01 X77.3758 Y65.9841 F500.00
G01 X77.4121 Y65.9441 F500.00
G01 X77.4521 Y65.9078 F500.00
G01 X77.4954 Y65.8757 F500.00
G01 X77.5417 Y65.8479 F500.00
G01 X77.5905 Y65.8249 F500.00
G01 X77.6413 Y65.8067 F500.00
G01 X77.6937 Y65.7936 F500.00
G01 X77.7471 Y65.7856 F500.00
G01 X77.8010 Y65.7830 F500.00
G01 X77.8549 Y65.7856 F500.00
G01 X77.9083 Y65.7936 F500.00
G01 X77.9607 Y65.8067 F500.00
G01 X78.0115 Y65.8249 F500.00
G01 X78.0603 Y65.8479 F500.00
G01 X78.1066 Y65.8757 F500.00
G01 X78.1499 Y65.9078 F500.00
G01 X78.1899 Y65.9441 F500.00
G01 X78.2262 Y65.9841 F500.00
G01 X78.2583 Y66.0274 F500.00
G01 X78.2861 Y66.0737 F500.00
G01 X78.3091 Y66.1225 F500.00
G01 X78.3273 Y66.1733 F500.00
G01 X78.3404 Y66.2257 F500.00
G01 X78.3484 Y66.2791 F500.00
G01 X78.3509 Y66.3355 F500.00
M5
G00 X80.8909 Y66.3355
G01 F60.00
M03 S1500.0
G01 F500.00
G01 X80.8884 Y66.3869 F500.00
G01 X80.8804 Y66.4403 F500.00
G01 X80.8673 Y66.4927 F500.00
G01 X80.8491 Y66.5435 F500.00
G01 X80.8261 Y66.5923 F500.00
G01 X80.7983 Y66.6386 F500.00
G01 X80.7662 Y66.6819 F500.00
G01 X80.7299 Y66.7219 F500.00
G01 X80.6899 Y66.7582 F500.00
G01 X80.6466 Y66.7903 F500.00
G01 X80.6003 Y66.8181 F500.00
G01 X80.5515 Y66.8411 F500.00
G01 X80.5007 Y66.8593 F500.00
G01 X80.4483 Y66.8724 F500.00
G01 X80.3949 Y66.8804 F500.00
G01 X80.3410 Y66.8830 F500.00
G01 X80.2871 Y66.8804 F500.00
G01 X80.2337 Y66.8724 F500.00
G01 X80.1813 Y66.8593 F500.00
G01 X80.1305 Y66.8411 F500.00
G01 X80.0817 Y66.8181 F500.00
G01 X80.0354 Y66.7903 F500.00
G01 X79.9921 Y66.7582 F500.00
G01 X79.9521 Y66.7219 F500.00
G01 X79.9158 Y66.6819 F500.00
G01 X79.8837 Y66.6386 F500.00
G01 X79.8559 Y66.5923 F500.00
G01 X79.8329 Y66.5435 F500.00
G01 X79.8147 Y66.4927 F500.00
G01 X79.8016 Y66.4403 F500.00
G01 X79.7936 Y66.3869 F500.00
G01 X79.7910 Y66.3330 F500.00
G01 X79.7936 Y66.2791 F500.00
G01 X79.8016 Y66.2257 F500.00
G01 X79.8147 Y66.1733 F500.00
G01 X79.8329 Y66.1225 F500.00
G01 X79.8559 Y66.0737 F500.00
G01 X79.8837 Y66.0274 F500.00
G01 X79.9158 Y65.9841 F500.00
G01 X79.9521 Y65.9441 F500.00
G01 X79.9921 Y65.9078 F500.00
G01 X80.0354 Y65.8757 F500.00
G01 X80.0817 Y65.8479 F500.00
G01 X80.1305 Y65.8249 F500.00
G01 X80.1813 Y65.8067 F500.00
G01 X80.2337 Y65.7936 F500.00
G01 X80.2871 Y65.7856 F500.00
G01 X80.3410 Y65.7830 F500.00
G01 X80.3949 Y65.7856 F500.00
G01 X80.4483 Y65.7936 F500.00
G01 X80.5007 Y65.8067 F500.00
G01 X80.5515 Y65.8249 F500.00
G01 X80.6003 Y65.8479 F500.00
G01 X80.6466 Y65.8757 F500.00
G01 X80.6899 Y65.9078 F500.00
G01 X80.7299 Y65.9441 F500.00
G01 X80.7662 Y65.9841 F500.00
G01 X80.7983 Y66.0274 F500.00
G01 X80.8261 Y66.0737 F500.00
G01 X80.8491 Y66.1225 F500.00
G01 X80.8673 Y66.1733 F500.00
G01 X80.8804 Y66.2257 F500.00
G01 X80.8884 Y66.2791 F500.00
G01 X80.8909 Y66.3355 F500.00
M5
G00 X79.5149 Y59.3225
G01 F60.00
M03 S1500.0
G01 F500.00
G01 X79.5124 Y59.3739 F500.00
G01 X79.5044 Y59.4273 F500.00
G01 X79.4913 Y59.4797 F500.00
G01 X79.4731 Y59.5305 F500.00
G01 X79.4501 Y59.5793 F500.00
G01 X79.4223 Y59.6256 F500.00
G01 X79.3902 Y59.6689 F500.00
G01 X79.3539 Y59.7089 F500.00
G01 X79.3139 Y59.7452 F500.00
G01 X79.2706 Y59.7773 F500.00
G01 X79.2243 Y59.8051 F500.00
G01 X79.1755 Y59.8281 F500.00
G01 X79.1247 Y59.8463 F500.00
G01 X79.0723 Y59.8594 F500.00
G01 X79.0189 Y59.8674 F500.00
G01 X78.9650 Y59.8700 F500.00
G01 X78.9111 Y59.8674 F500.00
G01 X78.8577 Y59.8594 F500.00
G01 X78.8053 Y59.8463 F500.00
G01 X78.7545 Y59.8281 F500.00
G01 X78.7057 Y59.8051 F500.00
G01 X78.6594 Y59.7773 F500.00
G01 X78.6161 Y59.7452 F500.00
G01 X78.5761 Y59.7089 F500.00
G01 X78.5398 Y59.6689 F500.00
G01 X78.5077 Y59.6256 F500.00
G01 X78.4799 Y59.5793 F500.00
