(G-CODE GENERATED BY FLATCAM v8.994 - www.flatcam.org - Version Date: 2020/11/7)

(Name: B_A_ - CADCAM Bottom Copper.GBR_iso_combined_cnc)
(Type: G-code from Geometry)
(Units: MM)

(Created on Thursday, 28 September 2023 at 01:09)

(This preprocessor is used with a motion controller loaded with GRBL firmware. )
(It is for the case when it is used together with a LASER connected on the SPINDLE connector.)

(Feedrate: 500.0 mm/min)
(Feedrate rapids: 1500.0 mm/min)

(Z Focus: 2.0 mm)
(Steps per circle: 64)
(Preprocessor Geometry: GRBL_laser)

(X range:   51.0992 ...  100.1008  mm)
(Y range:   40.6292 ...   79.0058  mm)

(Laser Power - Spindle Speed: 1000.0)

G21
G90
G17
G94

G01 F500.00

M5
G01 F500.00
G00 X51.3008 Y40.8308
G01 F60.00
M03 S1000.0
G01 F500.00
G01 X99.8992 Y40.8308 F500.00
G01 X99.8992 Y78.8042 F500.00
G01 X51.3008 Y78.8042 F500.00
G01 X51.3008 Y40.8308 F500.00
M5
G00 X57.5790 Y45.0452
G01 F60.00
M03 S1000.0
G01 F500.00
G01 X57.5790 Y43.1148 F500.00
G01 X57.5795 Y43.1075 F500.00
G01 X57.5815 Y43.0991 F500.00
G01 X57.5849 Y43.0912 F500.00
G01 X57.5896 Y43.0840 F500.00
G01 X57.5936 Y43.0794 F500.00
G01 X57.8993 Y42.7738 F500.00
G01 X57.9050 Y42.7691 F500.00
G01 X57.9113 Y42.7653 F500.00
G01 X57.9181 Y42.7625 F500.00
G01 X57.9253 Y42.7607 F500.00
G01 X57.9338 Y42.7600 F500.00
G01 X59.3562 Y42.7600 F500.00
G01 X59.3635 Y42.7605 F500.00
G01 X59.3719 Y42.7625 F500.00
G01 X59.3798 Y42.7659 F500.00
G01 X59.3870 Y42.7706 F500.00
G01 X59.3916 Y42.7746 F500.00
G01 X59.6972 Y43.0803 F500.00
G01 X59.7019 Y43.0860 F500.00
G01 X59.7057 Y43.0923 F500.00
G01 X59.7088 Y43.1003 F500.00
G01 X59.7105 Y43.1075 F500.00
G01 X59.7110 Y43.1148 F500.00
G01 X59.7110 Y45.0452 F500.00
G01 X59.7105 Y45.0525 F500.00
G01 X59.7085 Y45.0609 F500.00
G01 X59.7051 Y45.0688 F500.00
G01 X59.7004 Y45.0760 F500.00
G01 X59.6964 Y45.0806 F500.00
G01 X59.3907 Y45.3862 F500.00
G01 X59.3850 Y45.3909 F500.00
G01 X59.3787 Y45.3947 F500.00
G01 X59.3719 Y45.3975 F500.00
G01 X59.3647 Y45.3993 F500.00
G01 X59.3562 Y45.4000 F500.00
G01 X57.9326 Y45.4000 F500.00
G01 X57.9240 Y45.3990 F500.00
G01 X57.9147 Y45.3962 F500.00
G01 X57.9071 Y45.3922 F500.00
G01 X57.8993 Y45.3862 F500.00
G01 X57.5936 Y45.0806 F500.00
G01 X57.5874 Y45.0730 F500.00
G01 X57.5828 Y45.0643 F500.00
G01 X57.5800 Y45.0550 F500.00
G01 X57.5790 Y45.0452 F500.00
M5
G00 X60.1190 Y60.2852
G01 F60.00
M03 S1000.0
G01 F500.00
G01 X60.1190 Y58.3548 F500.00
G01 X60.1197 Y58.3463 F500.00
G01 X60.1224 Y58.3368 F500.00
G01 X60.1261 Y58.3291 F500.00
G01 X60.1311 Y58.3221 F500.00
G01 X60.4393 Y58.0138 F500.00
G01 X60.4450 Y58.0091 F500.00
G01 X60.4502 Y58.0059 F500.00
G01 X60.4570 Y58.0029 F500.00
G01 X60.4640 Y58.0010 F500.00
G01 X60.4738 Y58.0000 F500.00
G01 X61.7155 Y58.0000 F500.00
G01 X63.6103 Y56.1053 F500.00
G01 X63.6508 Y56.0685 F500.00
G01 X63.6928 Y56.0372 F500.00
G01 X63.7440 Y56.0066 F500.00
G01 X63.7937 Y55.9834 F500.00
G01 X63.8429 Y55.9658 F500.00
G01 X63.8937 Y55.9530 F500.00
G01 X63.9503 Y55.9444 F500.00
G01 X64.0038 Y55.9418 F500.00
G01 X68.9000 Y55.9417 F500.00
G01 X68.9547 Y55.9444 F500.00
G01 X69.0113 Y55.9530 F500.00
G01 X69.0621 Y55.9658 F500.00
G01 X69.1113 Y55.9834 F500.00
G01 X69.1621 Y56.0071 F500.00
G01 X69.2122 Y56.0372 F500.00
G01 X69.2542 Y56.0685 F500.00
G01 X69.2947 Y56.1053 F500.00
G01 X73.1157 Y59.9263 F500.00
G01 X73.1525 Y59.9668 F500.00
G01 X73.1852 Y60.0109 F500.00
G01 X73.2133 Y60.0578 F500.00
G01 X73.2368 Y60.1074 F500.00
G01 X73.2552 Y60.1589 F500.00
G01 X73.2685 Y60.2121 F500.00
G01 X73.2766 Y60.2663 F500.00
G01 X73.2793 Y60.3210 F500.00
G01 X73.2793 Y65.0130 F500.00
G01 X73.4347 Y65.0131 F500.00
G01 X73.4420 Y65.0140 F500.00
G01 X73.4479 Y65.0155 F500.00
G01 X73.4536 Y65.0178 F500.00
G01 X73.4600 Y65.0214 F500.00
G01 X73.4676 Y65.0276 F500.00
G01 X73.7732 Y65.3333 F500.00
G01 X73.7779 Y65.3390 F500.00
G01 X73.7811 Y65.3442 F500.00
G01 X73.7841 Y65.3510 F500.00
G01 X73.7858 Y65.3568 F500.00
G01 X73.7866 Y65.3617 F500.00
G01 X73.7870 Y65.3678 F500.00
G01 X73.7870 Y67.2982 F500.00
G01 X73.7868 Y67.3031 F500.00
G01 X73.7858 Y67.3092 F500.00
G01 X73.7841 Y67.3150 F500.00
G01 X73.7817 Y67.3207 F500.00
G01 X73.7772 Y67.3280 F500.00
G01 X73.7724 Y67.3336 F500.00
G01 X73.4667 Y67.6392 F500.00
G01 X73.4620 Y67.6432 F500.00
G01 X73.4558 Y67.6471 F500.00
G01 X73.4490 Y67.6501 F500.00
G01 X73.4420 Y67.6520 F500.00
G01 X73.4322 Y67.6530 F500.00
G01 X72.0098 Y67.6530 F500.00
G01 X72.0000 Y67.6520 F500.00
G01 X71.9907 Y67.6492 F500.00
G01 X71.9831 Y67.6452 F500.00
G01 X71.9753 Y67.6392 F500.00
G01 X71.6696 Y67.3336 F500.00
G01 X71.6641 Y67.3270 F500.00
G01 X71.6603 Y67.3207 F500.00
G01 X71.6579 Y67.3150 F500.00
G01 X71.6562 Y67.3092 F500.00
G01 X71.6554 Y67.3043 F500.00
G01 X71.6550 Y67.2982 F500.00
G01 X71.6550 Y65.3678 F500.00
G01 X71.6552 Y65.3629 F500.00
G01 X71.6562 Y65.3568 F500.00
G01 X71.6584 Y65.3498 F500.00
G01 X71.6609 Y65.3442 F500.00
G01 X71.6648 Y65.3380 F500.00
G01 X71.6688 Y65.3333 F500.00
G01 X71.9744 Y65.0276 F500.00
G01 X71.9820 Y65.0214 F500.00
G01 X71.9884 Y65.0178 F500.00
G01 X71.9941 Y65.0155 F500.00
G01 X72.0013 Y65.0137 F500.00
G01 X72.0073 Y65.0131 F500.00
G01 X72.1627 Y65.0130 F500.00
G01 X72.1627 Y60.5522 F500.00
G01 X68.6688 Y57.0583 F500.00
G01 X64.2362 Y57.0583 F500.00
G01 X62.2510 Y59.0435 F500.00
G01 X62.2510 Y60.2852 F500.00
G01 X62.2500 Y60.2950 F500.00
G01 X62.2481 Y60.3020 F500.00
G01 X62.2451 Y60.3088 F500.00
G01 X62.2419 Y60.3140 F500.00
G01 X62.2372 Y60.3197 F500.00
G01 X61.9316 Y60.6254 F500.00
G01 X61.9270 Y60.6294 F500.00
G01 X61.9198 Y60.6341 F500.00
G01 X61.9119 Y60.6375 F500.00
G01 X61.9047 Y60.6393 F500.00
G01 X61.8962 Y60.6400 F500.00
G01 X60.4738 Y60.6400 F500.00
G01 X60.4640 Y60.6390 F500.00
G01 X60.4570 Y60.6371 F500.00
G01 X60.4502 Y60.6341 F500.00
G01 X60.4450 Y60.6309 F500.00
G01 X60.4393 Y60.6262 F500.00
G01 X60.1328 Y60.3197 F500.00
G01 X60.1274 Y60.3130 F500.00
G01 X60.1228 Y60.3043 F500.00
G01 X60.1200 Y60.2950 F500.00
G01 X60.1190 Y60.2852 F500.00
M5
G00 X65.1990 Y60.2852
G01 F60.00
M03 S1000.0
G01 F500.00
G01 X65.1990 Y58.3548 F500.00
G01 X65.1997 Y58.3463 F500.00
G01 X65.2019 Y58.3380 F500.00
G01 X65.2049 Y58.3312 F500.00
G01 X65.2096 Y58.3240 F500.00
G01 X65.2136 Y58.3194 F500.00
G01 X65.5193 Y58.0138 F500.00
G01 X65.5250 Y58.0091 F500.00
G01 X65.5313 Y58.0053 F500.00
G01 X65.5381 Y58.0025 F500.00
G01 X65.5453 Y58.0007 F500.00
G01 X65.5538 Y58.0000 F500.00
G01 X66.9762 Y58.0000 F500.00
G01 X66.9847 Y58.0007 F500.00
G01 X66.9919 Y58.0025 F500.00
G01 X66.9998 Y58.0059 F500.00
G01 X67.0070 Y58.0106 F500.00
G01 X67.0116 Y58.0146 F500.00
G01 X67.3172 Y58.3203 F500.00
G01 X67.3219 Y58.3260 F500.00
G01 X67.3257 Y58.3323 F500.00
G01 X67.3285 Y58.3391 F500.00
G01 X67.3305 Y58.3475 F500.00
G01 X67.3310 Y58.3548 F500.00
G01 X67.3310 Y60.2852 F500.00
G01 X67.3300 Y60.2950 F500.00
G01 X67.3276 Y60.3032 F500.00
G01 X67.3232 Y60.3119 F500.00
G01 X67.3172 Y60.3197 F500.00
G01 X67.0116 Y60.6254 F500.00
G01 X67.0050 Y60.6309 F500.00
G01 X66.9987 Y60.6347 F500.00
G01 X66.9930 Y60.6371 F500.00
G01 X66.9860 Y60.6390 F500.00
G01 X66.9787 Y60.6399 F500.00
G01 X66.8233 Y60.6400 F500.00
G01 X66.8233 Y73.2754 F500.00
G01 X68.4012 Y74.8533 F500.00
G01 X94.1226 Y74.8533 F500.00
G01 X94.1227 Y74.6979 F500.00
G01 X94.1236 Y74.6906 F500.00
G01 X94.1251 Y74.6847 F500.00
G01 X94.1274 Y74.6790 F500.00
G01 X94.1310 Y74.6726 F500.00
G01 X94.1372 Y74.6650 F500.00
G01 X94.4429 Y74.3594 F500.00
G01 X94.4486 Y74.3547 F500.00
G01 X94.4538 Y74.3515 F500.00
G01 X94.4606 Y74.3485 F500.00
G01 X94.4664 Y74.3468 F500.00
G01 X94.4713 Y74.3460 F500.00
G01 X94.4774 Y74.3456 F500.00
G01 X96.4103 Y74.3457 F500.00
G01 X96.4188 Y74.3468 F500.00
G01 X96.4281 Y74.3499 F500.00
G01 X96.4366 Y74.3547 F500.00
G01 X96.4432 Y74.3602 F500.00
G01 X96.7488 Y74.6659 F500.00
G01 X96.7528 Y74.6706 F500.00
G01 X96.7567 Y74.6768 F500.00
G01 X96.7597 Y74.6836 F500.00
G01 X96.7616 Y74.6906 F500.00
G01 X96.7626 Y74.7004 F500.00
G01 X96.7626 Y76.1228 F500.00
G01 X96.7624 Y76.1277 F500.00
G01 X96.7614 Y76.1338 F500.00
G01 X96.7597 Y76.1396 F500.00
G01 X96.7573 Y76.1453 F500.00
G01 X96.7535 Y76.1516 F500.00
G01 X96.7480 Y76.1582 F500.00
G01 X96.4423 Y76.4638 F500.00
G01 X96.4356 Y76.4692 F500.00
G01 X96.4292 Y76.4728 F500.00
G01 X96.4223 Y76.4754 F500.00
G01 X96.4151 Y76.4771 F500.00
G01 X96.4078 Y76.4776 F500.00
G01 X94.4774 Y76.4776 F500.00
G01 X94.4676 Y76.4766 F500.00
G01 X94.4594 Y76.4742 F500.00
G01 X94.4507 Y76.4698 F500.00
G01 X94.4429 Y76.4638 F500.00
G01 X94.1372 Y76.1582 F500.00
G01 X94.1317 Y76.1516 F500.00
G01 X94.1279 Y76.1453 F500.00
G01 X94.1255 Y76.1396 F500.00
G01 X94.1236 Y76.1326 F500.00
G01 X94.1227 Y76.1253 F500.00
G01 X94.1226 Y75.9699 F500.00
G01 X68.1700 Y75.9699 F500.00
G01 X68.1153 Y75.9672 F500.00
G01 X68.0587 Y75.9586 F500.00
G01 X68.0079 Y75.9458 F500.00
G01 X67.9587 Y75.9282 F500.00
G01 X67.9079 Y75.9045 F500.00
G01 X67.8578 Y75.8744 F500.00
G01 X67.8158 Y75.8431 F500.00
G01 X67.7753 Y75.8063 F500.00
G01 X65.8694 Y73.9005 F500.00
G01 X65.8335 Y73.8608 F500.00
G01 X65.8022 Y73.8188 F500.00
G01 X65.7727 Y73.7698 F500.00
G01 X65.7492 Y73.7202 F500.00
G01 X65.7316 Y73.6710 F500.00
G01 X65.7172 Y73.6143 F500.00
G01 X65.7094 Y73.5613 F500.00
G01 X65.7067 Y73.5066 F500.00
G01 X65.7067 Y60.6400 F500.00
G01 X65.5513 Y60.6399 F500.00
G01 X65.5440 Y60.6390 F500.00
G01 X65.5370 Y60.6371 F500.00
G01 X65.5313 Y60.6347 F500.00
G01 X65.5250 Y60.6309 F500.00
G01 X65.5184 Y60.6254 F500.00
G01 X65.2128 Y60.3197 F500.00
G01 X65.2068 Y60.3119 F500.00
G01 X65.2028 Y60.3043 F500.00
G01 X65.2000 Y60.2950 F500.00
G01 X65.1990 Y60.2852 F500.00
M5
G00 X75.3590 Y60.2852
G01 F60.00
M03 S1000.0
G01 F500.00
G01 X75.3590 Y58.3548 F500.00
G01 X75.3595 Y58.3475 F500.00
G01 X75.3612 Y58.3403 F500.00
G01 X75.3638 Y58.3334 F500.00
G01 X75.3674 Y58.3270 F500.00
G01 X75.3728 Y58.3203 F500.00
G01 X75.6784 Y58.0146 F500.00
G01 X75.6860 Y58.0084 F500.00
G01 X75.6924 Y58.0048 F500.00
G01 X75.6981 Y58.0025 F500.00
G01 X75.7053 Y58.0007 F500.00
G01 X75.7113 Y58.0001 F500.00
G01 X75.8667 Y58.0000 F500.00
G01 X75.8667 Y56.1450 F500.00
G01 X75.8694 Y56.0903 F500.00
G01 X75.8775 Y56.0361 F500.00
G01 X75.8908 Y55.9829 F500.00
G01 X75.9092 Y55.9314 F500.00
G01 X75.9327 Y55.8818 F500.00
G01 X75.9608 Y55.8349 F500.00
G01 X75.9935 Y55.7908 F500.00
G01 X76.0303 Y55.7503 F500.00
G01 X76.0699 Y55.7143 F500.00
G01 X76.1149 Y55.6808 F500.00
G01 X76.1597 Y55.6539 F500.00
G01 X76.2137 Y55.6284 F500.00
G01 X76.2629 Y55.6108 F500.00
G01 X76.3161 Y55.5975 F500.00
G01 X76.3703 Y55.5894 F500.00
G01 X76.4238 Y55.5868 F500.00
G01 X80.2350 Y55.5867 F500.00
G01 X80.2897 Y55.5894 F500.00
G01 X80.3439 Y55.5975 F500.00
G01 X80.3971 Y55.6108 F500.00
G01 X80.4463 Y55.6284 F500.00
G01 X80.5003 Y55.6539 F500.00
G01 X80.5451 Y55.6808 F500.00
G01 X80.5910 Y55.7151 F500.00
G01 X80.6297 Y55.7503 F500.00
G01 X82.5356 Y57.6561 F500.00
G01 X82.5715 Y57.6958 F500.00
G01 X82.6028 Y57.7378 F500.00
G01 X82.6323 Y57.7868 F500.00
G01 X82.6558 Y57.8364 F500.00
G01 X82.6734 Y57.8856 F500.00
G01 X82.6878 Y57.9423 F500.00
G01 X82.6956 Y57.9953 F500.00
G01 X82.6983 Y58.0500 F500.00
G01 X82.6982 Y66.3342 F500.00
G01 X82.6956 Y66.3877 F500.00
G01 X82.6875 Y66.4419 F500.00
G01 X82.6742 Y66.4951 F500.00
G01 X82.6566 Y66.5443 F500.00
G01 X82.6311 Y66.5983 F500.00
G01 X82.6042 Y66.6431 F500.00
G01 X82.5699 Y66.6890 F500.00
G01 X82.5347 Y66.7277 F500.00
G01 X82.4942 Y66.7645 F500.00
G01 X82.4501 Y66.7972 F500.00
G01 X82.4053 Y66.8241 F500.00
G01 X82.3513 Y66.8496 F500.00
G01 X82.3021 Y66.8672 F500.00
G01 X82.2477 Y66.8808 F500.00
G01 X82.1947 Y66.8886 F500.00
G01 X82.1412 Y66.8912 F500.00
G01 X81.4070 Y66.8913 F500.00
G01 X81.4070 Y67.2982 F500.00
G01 X81.4060 Y67.3080 F500.00
G01 X81.4045 Y67.3139 F500.00
G01 X81.4027 Y67.3185 F500.00
G01 X81.3979 Y67.3270 F500.00
G01 X81.3924 Y67.3336 F500.00
G01 X81.0876 Y67.6384 F500.00
G01 X81.0820 Y67.6432 F500.00
G01 X81.0758 Y67.6471 F500.00
G01 X81.0690 Y67.6501 F500.00
G01 X81.0620 Y67.6520 F500.00
G01 X81.0522 Y67.6530 F500.00
G01 X79.6298 Y67.6530 F500.00
G01 X79.6200 Y67.6520 F500.00
G01 X79.6130 Y67.6501 F500.00
G01 X79.6062 Y67.6471 F500.00
G01 X79.6000 Y67.6432 F500.00
G01 X79.5944 Y67.6384 F500.00
G01 X79.2888 Y67.3327 F500.00
G01 X79.2841 Y67.3270 F500.00
G01 X79.2809 Y67.3218 F500.00
G01 X79.2784 Y67.3162 F500.00
G01 X79.2765 Y67.3103 F500.00
G01 X79.2754 Y67.3043 F500.00
G01 X79.2750 Y67.2982 F500.00
G01 X79.2750 Y65.3678 F500.00
G01 X79.2755 Y65.3605 F500.00
G01 X79.2772 Y65.3533 F500.00
G01 X79.2798 Y65.3464 F500.00
G01 X79.2841 Y65.3390 F500.00
G01 X79.2888 Y65.3333 F500.00
G01 X79.5944 Y65.0276 F500.00
G01 X79.6020 Y65.0214 F500.00
G01 X79.6084 Y65.0178 F500.00
G01 X79.6153 Y65.0152 F500.00
G01 X79.6225 Y65.0135 F500.00
G01 X79.6298 Y65.0130 F500.00
G01 X81.0522 Y65.0130 F500.00
G01 X81.0607 Y65.0137 F500.00
G01 X81.0702 Y65.0164 F500.00
G01 X81.0789 Y65.0208 F500.00
G01 X81.0839 Y65.0243 F500.00
G01 X81.0876 Y65.0276 F500.00
G01 X81.3924 Y65.3324 F500.00
G01 X81.3979 Y65.3390 F500.00
G01 X81.4027 Y65.3475 F500.00
G01 X81.4045 Y65.3521 F500.00
G01 X81.4060 Y65.3580 F500.00
G01 X81.4070 Y65.3678 F500.00
G01 X81.4070 Y65.7747 F500.00
G01 X81.5817 Y65.7747 F500.00
G01 X81.5817 Y58.2812 F500.00
G01 X80.0038 Y56.7033 F500.00
G01 X76.9833 Y56.7033 F500.00
G01 X76.9833 Y58.0000 F500.00
G01 X77.1387 Y58.0001 F500.00
G01 X77.1460 Y58.0010 F500.00
G01 X77.1519 Y58.0025 F500.00
G01 X77.1576 Y58.0048 F500.00
G01 X77.1640 Y58.0084 F500.00
G01 X77.1716 Y58.0146 F500.00
G01 X77.4772 Y58.3203 F500.00
G01 X77.4819 Y58.3260 F500.00
G01 X77.4862 Y58.3334 F500.00
G01 X77.4888 Y58.3403 F500.00
G01 X77.4905 Y58.3475 F500.00
G01 X77.4910 Y58.3548 F500.00
G01 X77.4910 Y60.2852 F500.00
G01 X77.4906 Y60.2913 F500.00
G01 X77.4898 Y60.2962 F500.00
G01 X77.4867 Y60.3055 F500.00
G01 X77.4826 Y60.3130 F500.00
G01 X77.4764 Y60.3206 F500.00
G01 X77.1716 Y60.6254 F500.00
G01 X77.1660 Y60.6302 F500.00
G01 X77.1598 Y60.6341 F500.00
G01 X77.1530 Y60.6371 F500.00
G01 X77.1460 Y60.6390 F500.00
G01 X77.1362 Y60.6400 F500.00
G01 X75.7138 Y60.6400 F500.00
G01 X75.7040 Y60.6390 F500.00
G01 X75.6958 Y60.6366 F500.00
G01 X75.6871 Y60.6322 F500.00
G01 X75.6793 Y60.6262 F500.00
G01 X75.3736 Y60.3206 F500.00
G01 X75.3674 Y60.3130 F500.00
G01 X75.3628 Y60.3043 F500.00
G01 X75.3600 Y60.2950 F500.00
G01 X75.3590 Y60.2852 F500.00
M5
G00 X76.7350 Y67.2982
G01 F60.00
M03 S1000.0
G01 F500.00
G01 X76.7350 Y65.3678 F500.00
G01 X76.7354 Y65.3617 F500.00
G01 X76.7372 Y65.3533 F500.00
G01 X76.7398 Y65.3464 F500.00
G01 X76.7441 Y65.3390 F500.00
G01 X76.7488 Y65.3333 F500.00
G01 X77.0544 Y65.0276 F500.00
G01 X77.0610 Y65.0221 F500.00
G01 X77.0673 Y65.0183 F500.00
G01 X77.0730 Y65.0159 F500.00
G01 X77.0800 Y65.0140 F500.00
G01 X77.0873 Y65.0131 F500.00
G01 X77.2427 Y65.0130 F500.00
G01 X77.2427 Y63.1300 F500.00
G01 X77.2457 Y63.0728 F500.00
G01 X77.2535 Y63.0211 F500.00
G01 X77.2668 Y62.9679 F500.00
G01 X77.2852 Y62.9164 F500.00
G01 X77.3099 Y62.8647 F500.00
G01 X77.3368 Y62.8199 F500.00
G01 X77.3680 Y62.7778 F500.00
G01 X77.4046 Y62.7370 F500.00
G01 X78.4067 Y61.7348 F500.00
G01 X78.4067 Y60.6400 F500.00
G01 X78.2513 Y60.6399 F500.00
G01 X78.2440 Y60.6390 F500.00
G01 X78.2381 Y60.6375 F500.00
G01 X78.2324 Y60.6352 F500.00
G01 X78.2260 Y60.6316 F500.00
G01 X78.2184 Y60.6254 F500.00
G01 X77.9128 Y60.3197 F500.00
G01 X77.9081 Y60.3140 F500.00
G01 X77.9038 Y60.3066 F500.00
G01 X77.9012 Y60.2997 F500.00
G01 X77.8995 Y60.2925 F500.00
G01 X77.8990 Y60.2852 F500.00
G01 X77.8990 Y58.3548 F500.00
