(G-CODE GENERATED BY FLATCAM v8.994 - www.flatcam.org - Version Date: 2020/11/7)

(Name: B_A_ - CADCAM Bottom Copper.GBR_iso_combined_cnc)
(Type: G-code from Geometry)
(Units: MM)

(Created on Saturday, 30 September 2023 at 18:58)

(This preprocessor is used with a motion controller loaded with GRBL firmware. )
(It is for the case when it is used together with a LASER connected on the SPINDLE connector.)

(Feedrate: 120.0 mm/min)
(Feedrate rapids: 1500.0 mm/min)

(Z Focus: 2.0 mm)
(Steps per circle: 64)
(Preprocessor Geometry: GRBL_laser)

(X range:   46.0992 ...  107.4008  mm)
(Y range:   23.4292 ...   46.7058  mm)

(Laser Power - Spindle Speed: 1000.0)

G21
G90
G17
G94

G01 F120.00

M5
G01 F120.00
G00 X46.3008 Y23.6308
G01 F60.00
M03 S1000.0
G01 F120.00
G01 X107.1992 Y23.6308 F120.00
G01 X107.1992 Y46.5042 F120.00
G01 X46.3008 Y46.5042 F120.00
G01 X46.3008 Y23.6308 F120.00
M5
G00 X49.8739 Y25.6025
G01 F60.00
M03 S1000.0
G01 F120.00
G01 X49.8664 Y25.7543 F120.00
G01 X49.8438 Y25.9071 F120.00
G01 X49.8062 Y26.0569 F120.00
G01 X49.7542 Y26.2023 F120.00
G01 X49.6881 Y26.3420 F120.00
G01 X49.6087 Y26.4745 F120.00
G01 X49.5167 Y26.5985 F120.00
G01 X49.4130 Y26.7130 F120.00
G01 X49.2985 Y26.8167 F120.00
G01 X49.1745 Y26.9087 F120.00
G01 X49.0420 Y26.9881 F120.00
G01 X48.9023 Y27.0542 F120.00
G01 X48.7569 Y27.1062 F120.00
G01 X48.6071 Y27.1438 F120.00
G01 X48.4543 Y27.1664 F120.00
G01 X48.3000 Y27.1740 F120.00
G01 X48.1457 Y27.1664 F120.00
G01 X47.9929 Y27.1438 F120.00
G01 X47.8431 Y27.1062 F120.00
G01 X47.6977 Y27.0542 F120.00
G01 X47.5580 Y26.9881 F120.00
G01 X47.4255 Y26.9087 F120.00
G01 X47.3015 Y26.8167 F120.00
G01 X47.1870 Y26.7130 F120.00
G01 X47.0833 Y26.5985 F120.00
G01 X46.9913 Y26.4745 F120.00
G01 X46.9119 Y26.3420 F120.00
G01 X46.8458 Y26.2023 F120.00
G01 X46.7938 Y26.0569 F120.00
G01 X46.7562 Y25.9071 F120.00
G01 X46.7336 Y25.7543 F120.00
G01 X46.7260 Y25.6000 F120.00
G01 X46.7336 Y25.4457 F120.00
G01 X46.7562 Y25.2929 F120.00
G01 X46.7938 Y25.1431 F120.00
G01 X46.8458 Y24.9977 F120.00
G01 X46.9119 Y24.8580 F120.00
G01 X46.9913 Y24.7255 F120.00
G01 X47.0833 Y24.6015 F120.00
G01 X47.1870 Y24.4870 F120.00
G01 X47.3015 Y24.3833 F120.00
G01 X47.4255 Y24.2913 F120.00
G01 X47.5580 Y24.2119 F120.00
G01 X47.6977 Y24.1458 F120.00
G01 X47.8431 Y24.0938 F120.00
G01 X47.9929 Y24.0562 F120.00
G01 X48.1457 Y24.0336 F120.00
G01 X48.3000 Y24.0260 F120.00
G01 X48.4543 Y24.0336 F120.00
G01 X48.6071 Y24.0562 F120.00
G01 X48.7569 Y24.0938 F120.00
G01 X48.9023 Y24.1458 F120.00
G01 X49.0420 Y24.2119 F120.00
G01 X49.1745 Y24.2913 F120.00
G01 X49.2985 Y24.3833 F120.00
G01 X49.4130 Y24.4870 F120.00
G01 X49.5167 Y24.6015 F120.00
G01 X49.6087 Y24.7255 F120.00
G01 X49.6881 Y24.8580 F120.00
G01 X49.7542 Y24.9977 F120.00
G01 X49.8062 Y25.1431 F120.00
G01 X49.8438 Y25.2929 F120.00
G01 X49.8664 Y25.4457 F120.00
G01 X49.8739 Y25.6025 F120.00
M5
G00 X49.6800 Y31.1112
G01 F60.00
M03 S1000.0
G01 F120.00
G01 X49.6800 Y29.6888 F120.00
G01 X49.6810 Y29.6790 F120.00
G01 X49.6829 Y29.6720 F120.00
G01 X49.6859 Y29.6652 F120.00
G01 X49.6891 Y29.6600 F120.00
G01 X49.6938 Y29.6543 F120.00
G01 X49.9994 Y29.3486 F120.00
G01 X50.0070 Y29.3424 F120.00
G01 X50.0145 Y29.3383 F120.00
G01 X50.0238 Y29.3352 F120.00
G01 X50.0323 Y29.3341 F120.00
G01 X51.9652 Y29.3340 F120.00
G01 X51.9701 Y29.3342 F120.00
G01 X51.9762 Y29.3352 F120.00
G01 X51.9832 Y29.3374 F120.00
G01 X51.9888 Y29.3399 F120.00
G01 X51.9940 Y29.3431 F120.00
G01 X51.9997 Y29.3478 F120.00
G01 X52.3054 Y29.6534 F120.00
G01 X52.3116 Y29.6610 F120.00
G01 X52.3152 Y29.6674 F120.00
G01 X52.3175 Y29.6731 F120.00
G01 X52.3193 Y29.6803 F120.00
G01 X52.3199 Y29.6863 F120.00
G01 X52.3200 Y29.8417 F120.00
G01 X81.9467 Y29.8417 F120.00
G01 X81.9467 Y28.4000 F120.00
G01 X81.7913 Y28.3999 F120.00
G01 X81.7840 Y28.3990 F120.00
G01 X81.7781 Y28.3975 F120.00
G01 X81.7713 Y28.3947 F120.00
G01 X81.7650 Y28.3909 F120.00
G01 X81.7584 Y28.3854 F120.00
G01 X81.4528 Y28.0797 F120.00
G01 X81.4474 Y28.0730 F120.00
G01 X81.4438 Y28.0666 F120.00
G01 X81.4408 Y28.0585 F120.00
G01 X81.4394 Y28.0513 F120.00
G01 X81.4390 Y28.0452 F120.00
G01 X81.4390 Y26.1148 F120.00
G01 X81.4394 Y26.1087 F120.00
G01 X81.4402 Y26.1038 F120.00
G01 X81.4433 Y26.0945 F120.00
G01 X81.4474 Y26.0870 F120.00
G01 X81.4536 Y26.0794 F120.00
G01 X81.7584 Y25.7746 F120.00
G01 X81.7640 Y25.7698 F120.00
G01 X81.7702 Y25.7659 F120.00
G01 X81.7770 Y25.7629 F120.00
G01 X81.7840 Y25.7610 F120.00
G01 X81.7938 Y25.7600 F120.00
G01 X83.2162 Y25.7600 F120.00
G01 X83.2260 Y25.7610 F120.00
G01 X83.2353 Y25.7638 F120.00
G01 X83.2440 Y25.7684 F120.00
G01 X83.2516 Y25.7746 F120.00
G01 X83.5572 Y26.0803 F120.00
G01 X83.5626 Y26.0870 F120.00
G01 X83.5662 Y26.0934 F120.00
G01 X83.5688 Y26.1003 F120.00
G01 X83.5705 Y26.1075 F120.00
G01 X83.5710 Y26.1148 F120.00
G01 X83.5710 Y28.0452 F120.00
G01 X83.5700 Y28.0550 F120.00
G01 X83.5681 Y28.0620 F120.00
G01 X83.5651 Y28.0688 F120.00
G01 X83.5612 Y28.0750 F120.00
G01 X83.5572 Y28.0797 F120.00
G01 X83.2516 Y28.3854 F120.00
G01 X83.2440 Y28.3916 F120.00
G01 X83.2387 Y28.3947 F120.00
G01 X83.2319 Y28.3975 F120.00
G01 X83.2260 Y28.3990 F120.00
G01 X83.2187 Y28.3999 F120.00
G01 X83.0633 Y28.4000 F120.00
G01 X83.0633 Y30.4000 F120.00
G01 X83.0606 Y30.4547 F120.00
G01 X83.0525 Y30.5089 F120.00
G01 X83.0392 Y30.5621 F120.00
G01 X83.0216 Y30.6113 F120.00
G01 X82.9973 Y30.6632 F120.00
G01 X82.9692 Y30.7101 F120.00
G01 X82.9380 Y30.7522 F120.00
G01 X82.8980 Y30.7964 F120.00
G01 X82.8592 Y30.8315 F120.00
G01 X82.8151 Y30.8642 F120.00
G01 X82.7682 Y30.8923 F120.00
G01 X82.7209 Y30.9148 F120.00
G01 X82.6647 Y30.9349 F120.00
G01 X82.6139 Y30.9475 F120.00
G01 X82.5622 Y30.9553 F120.00
G01 X82.5050 Y30.9583 F120.00
G01 X52.3200 Y30.9583 F120.00
G01 X52.3199 Y31.1137 F120.00
G01 X52.3190 Y31.1210 F120.00
G01 X52.3171 Y31.1280 F120.00
G01 X52.3147 Y31.1337 F120.00
G01 X52.3109 Y31.1400 F120.00
G01 X52.3054 Y31.1466 F120.00
G01 X51.9997 Y31.4522 F120.00
G01 X51.9919 Y31.4582 F120.00
G01 X51.9832 Y31.4626 F120.00
G01 X51.9750 Y31.4650 F120.00
G01 X51.9652 Y31.4660 F120.00
G01 X50.0348 Y31.4660 F120.00
G01 X50.0275 Y31.4655 F120.00
G01 X50.0203 Y31.4638 F120.00
G01 X50.0134 Y31.4612 F120.00
G01 X50.0070 Y31.4576 F120.00
G01 X50.0003 Y31.4522 F120.00
G01 X49.6946 Y31.1466 F120.00
G01 X49.6884 Y31.1390 F120.00
G01 X49.6838 Y31.1303 F120.00
G01 X49.6810 Y31.1210 F120.00
G01 X49.6800 Y31.1112 F120.00
M5
G00 X49.6800 Y33.6112
G01 F60.00
M03 S1000.0
G01 F120.00
G01 X49.6800 Y32.1888 F120.00
G01 X49.6810 Y32.1790 F120.00
G01 X49.6829 Y32.1720 F120.00
G01 X49.6859 Y32.1652 F120.00
G01 X49.6891 Y32.1600 F120.00
G01 X49.6938 Y32.1543 F120.00
G01 X49.9994 Y31.8486 F120.00
G01 X50.0070 Y31.8424 F120.00
G01 X50.0157 Y31.8378 F120.00
G01 X50.0238 Y31.8352 F120.00
G01 X50.0336 Y31.8340 F120.00
G01 X51.9652 Y31.8340 F120.00
G01 X51.9701 Y31.8342 F120.00
G01 X51.9762 Y31.8352 F120.00
G01 X51.9832 Y31.8374 F120.00
G01 X51.9888 Y31.8399 F120.00
G01 X51.9940 Y31.8431 F120.00
G01 X51.9997 Y31.8478 F120.00
G01 X52.3054 Y32.1534 F120.00
G01 X52.3116 Y32.1610 F120.00
G01 X52.3152 Y32.1674 F120.00
G01 X52.3175 Y32.1731 F120.00
G01 X52.3193 Y32.1803 F120.00
G01 X52.3199 Y32.1863 F120.00
G01 X52.3200 Y32.3417 F120.00
G01 X90.5288 Y32.3417 F120.00
G01 X92.1067 Y30.7638 F120.00
G01 X92.1067 Y28.4000 F120.00
G01 X91.9513 Y28.3999 F120.00
G01 X91.9453 Y28.3993 F120.00
G01 X91.9381 Y28.3975 F120.00
G01 X91.9313 Y28.3947 F120.00
G01 X91.9260 Y28.3916 F120.00
G01 X91.9184 Y28.3854 F120.00
G01 X91.6128 Y28.0797 F120.00
G01 X91.6081 Y28.0740 F120.00
G01 X91.6049 Y28.0688 F120.00
G01 X91.6019 Y28.0620 F120.00
G01 X91.6002 Y28.0562 F120.00
G01 X91.5994 Y28.0513 F120.00
G01 X91.5990 Y28.0452 F120.00
G01 X91.5990 Y26.1148 F120.00
G01 X91.5994 Y26.1087 F120.00
G01 X91.6002 Y26.1038 F120.00
G01 X91.6019 Y26.0980 F120.00
G01 X91.6043 Y26.0923 F120.00
G01 X91.6088 Y26.0850 F120.00
G01 X91.6136 Y26.0794 F120.00
G01 X91.9193 Y25.7738 F120.00
G01 X91.9250 Y25.7691 F120.00
G01 X91.9313 Y25.7653 F120.00
G01 X91.9381 Y25.7625 F120.00
G01 X91.9440 Y25.7610 F120.00
G01 X91.9538 Y25.7600 F120.00
G01 X93.3762 Y25.7600 F120.00
G01 X93.3860 Y25.7610 F120.00
G01 X93.3953 Y25.7638 F120.00
G01 X93.4040 Y25.7684 F120.00
G01 X93.4116 Y25.7746 F120.00
G01 X93.7172 Y26.0803 F120.00
G01 X93.7219 Y26.0860 F120.00
G01 X93.7257 Y26.0923 F120.00
G01 X93.7285 Y26.0991 F120.00
G01 X93.7303 Y26.1063 F120.00
G01 X93.7310 Y26.1148 F120.00
G01 X93.7310 Y28.0452 F120.00
G01 X93.7306 Y28.0513 F120.00
G01 X93.7298 Y28.0562 F120.00
G01 X93.7276 Y28.0632 F120.00
G01 X93.7251 Y28.0688 F120.00
G01 X93.7212 Y28.0750 F120.00
G01 X93.7172 Y28.0797 F120.00
G01 X93.4116 Y28.3854 F120.00
G01 X93.4040 Y28.3916 F120.00
G01 X93.3987 Y28.3947 F120.00
G01 X93.3919 Y28.3975 F120.00
G01 X93.3860 Y28.3990 F120.00
G01 X93.3787 Y28.3999 F120.00
G01 X93.2233 Y28.4000 F120.00
G01 X93.2232 Y30.9962 F120.00
G01 X93.2206 Y31.0497 F120.00
G01 X93.2125 Y31.1039 F120.00
G01 X93.1992 Y31.1571 F120.00
G01 X93.1812 Y31.2075 F120.00
G01 X93.1573 Y31.2582 F120.00
G01 X93.1292 Y31.3051 F120.00
G01 X93.0965 Y31.3492 F120.00
G01 X93.0606 Y31.3889 F120.00
G01 X91.1539 Y33.2956 F120.00
G01 X91.1142 Y33.3315 F120.00
G01 X91.0722 Y33.3628 F120.00
G01 X91.0232 Y33.3923 F120.00
G01 X90.9736 Y33.4158 F120.00
G01 X90.9244 Y33.4334 F120.00
G01 X90.8677 Y33.4478 F120.00
G01 X90.8147 Y33.4556 F120.00
G01 X90.7600 Y33.4583 F120.00
G01 X52.3200 Y33.4583 F120.00
G01 X52.3199 Y33.6137 F120.00
G01 X52.3190 Y33.6210 F120.00
G01 X52.3171 Y33.6280 F120.00
G01 X52.3141 Y33.6348 F120.00
G01 X52.3109 Y33.6400 F120.00
G01 X52.3054 Y33.6466 F120.00
G01 X51.9997 Y33.9522 F120.00
G01 X51.9919 Y33.9582 F120.00
G01 X51.9843 Y33.9622 F120.00
G01 X51.9750 Y33.9650 F120.00
G01 X51.9652 Y33.9660 F120.00
G01 X50.0348 Y33.9660 F120.00
G01 X50.0275 Y33.9655 F120.00
G01 X50.0203 Y33.9638 F120.00
G01 X50.0123 Y33.9607 F120.00
G01 X50.0060 Y33.9569 F120.00
G01 X50.0003 Y33.9522 F120.00
G01 X49.6946 Y33.6466 F120.00
G01 X49.6884 Y33.6390 F120.00
G01 X49.6838 Y33.6303 F120.00
G01 X49.6810 Y33.6210 F120.00
G01 X49.6800 Y33.6112 F120.00
M5
G00 X49.6800 Y36.1512
G01 F60.00
M03 S1000.0
G01 F120.00
G01 X49.6800 Y34.7288 F120.00
G01 X49.6810 Y34.7190 F120.00
G01 X49.6829 Y34.7120 F120.00
G01 X49.6859 Y34.7052 F120.00
G01 X49.6891 Y34.7000 F120.00
G01 X49.6938 Y34.6943 F120.00
G01 X49.9994 Y34.3886 F120.00
G01 X50.0070 Y34.3824 F120.00
G01 X50.0157 Y34.3778 F120.00
G01 X50.0238 Y34.3752 F120.00
G01 X50.0336 Y34.3740 F120.00
G01 X51.9652 Y34.3740 F120.00
G01 X51.9701 Y34.3742 F120.00
G01 X51.9762 Y34.3752 F120.00
G01 X51.9832 Y34.3774 F120.00
G01 X51.9888 Y34.3799 F120.00
G01 X51.9950 Y34.3838 F120.00
G01 X51.9997 Y34.3878 F120.00
G01 X52.3054 Y34.6934 F120.00
G01 X52.3116 Y34.7010 F120.00
G01 X52.3152 Y34.7074 F120.00
G01 X52.3175 Y34.7131 F120.00
G01 X52.3193 Y34.7203 F120.00
G01 X52.3199 Y34.7263 F120.00
G01 X52.3200 Y34.8817 F120.00
G01 X92.9638 Y34.8817 F120.00
G01 X94.6467 Y33.1988 F120.00
G01 X94.6467 Y28.4000 F120.00
G01 X94.4913 Y28.3999 F120.00
G01 X94.4853 Y28.3993 F120.00
G01 X94.4781 Y28.3975 F120.00
G01 X94.4713 Y28.3947 F120.00
G01 X94.4660 Y28.3916 F120.00
G01 X94.4584 Y28.3854 F120.00
G01 X94.1528 Y28.0797 F120.00
G01 X94.1481 Y28.0740 F120.00
G01 X94.1449 Y28.0688 F120.00
G01 X94.1419 Y28.0620 F120.00
G01 X94.1402 Y28.0562 F120.00
G01 X94.1394 Y28.0513 F120.00
G01 X94.1390 Y28.0452 F120.00
G01 X94.1390 Y26.1148 F120.00
G01 X94.1400 Y26.1050 F120.00
G01 X94.1424 Y26.0968 F120.00
G01 X94.1468 Y26.0881 F120.00
G01 X94.1503 Y26.0831 F120.00
G01 X94.1536 Y26.0794 F120.00
G01 X94.4584 Y25.7746 F120.00
G01 X94.4640 Y25.7698 F120.00
G01 X94.4702 Y25.7659 F120.00
G01 X94.4770 Y25.7629 F120.00
G01 X94.4840 Y25.7610 F120.00
G01 X94.4938 Y25.7600 F120.00
G01 X95.9162 Y25.7600 F120.00
G01 X95.9260 Y25.7610 F120.00
G01 X95.9353 Y25.7638 F120.00
G01 X95.9440 Y25.7684 F120.00
G01 X95.9507 Y25.7738 F120.00
G01 X96.2572 Y26.0803 F120.00
G01 X96.2619 Y26.0860 F120.00
G01 X96.2651 Y26.0912 F120.00
G01 X96.2681 Y26.0980 F120.00
G01 X96.2698 Y26.1038 F120.00
G01 X96.2706 Y26.1087 F120.00
G01 X96.2710 Y26.1148 F120.00
G01 X96.2710 Y28.0452 F120.00
G01 X96.2706 Y28.0513 F120.00
G01 X96.2698 Y28.0562 F120.00
G01 X96.2676 Y28.0632 F120.00
G01 X96.2651 Y28.0688 F120.00
G01 X96.2612 Y28.0750 F120.00
G01 X96.2572 Y28.0797 F120.00
G01 X95.9516 Y28.3854 F120.00
G01 X95.9440 Y28.3916 F120.00
G01 X95.9387 Y28.3947 F120.00
G01 X95.9319 Y28.3975 F120.00
G01 X95.9260 Y28.3990 F120.00
G01 X95.9187 Y28.3999 F120.00
G01 X95.7633 Y28.4000 F120.00
G01 X95.7633 Y33.4300 F120.00
G01 X95.7603 Y33.4872 F120.00
G01 X95.7525 Y33.5389 F120.00
G01 X95.7392 Y33.5921 F120.00
G01 X95.7208 Y33.6436 F120.00
G01 X95.6961 Y33.6953 F120.00
G01 X95.6692 Y33.7401 F120.00
G01 X95.6380 Y33.7822 F120.00
G01 X95.6006 Y33.8239 F120.00
G01 X93.5897 Y35.8347 F120.00
G01 X93.5472 Y35.8730 F120.00
G01 X93.5051 Y35.9042 F120.00
G01 X93.4582 Y35.9323 F120.00
G01 X93.4063 Y35.9566 F120.00
G01 X93.3571 Y35.9742 F120.00
G01 X93.3051 Y35.9873 F120.00
G01 X93.2497 Y35.9956 F120.00
G01 X93.1950 Y35.9983 F120.00
G01 X52.3200 Y35.9983 F120.00
G01 X52.3199 Y36.1537 F120.00
G01 X52.3190 Y36.1610 F120.00
G01 X52.3171 Y36.1680 F120.00
G01 X52.3141 Y36.1748 F120.00
G01 X52.3109 Y36.1800 F120.00
G01 X52.3054 Y36.1866 F120.00
G01 X51.9997 Y36.4922 F120.00
G01 X51.9919 Y36.4982 F120.00
G01 X51.9843 Y36.5022 F120.00
G01 X51.9750 Y36.5050 F120.00
G01 X51.9652 Y36.5060 F120.00
G01 X50.0348 Y36.5060 F120.00
G01 X50.0275 Y36.5055 F120.00
G01 X50.0203 Y36.5038 F120.00
G01 X50.0123 Y36.5007 F120.00
G01 X50.0060 Y36.4969 F120.00
G01 X50.0003 Y36.4922 F120.00
G01 X49.6946 Y36.1866 F120.00
G01 X49.6884 Y36.1790 F120.00
G01 X49.6838 Y36.1703 F120.00
G01 X49.6810 Y36.1610 F120.00
G01 X49.6800 Y36.1512 F120.00
M5
G00 X49.6800 Y38.6912
G01 F60.00
M03 S1000.0
G01 F120.00
G01 X49.6800 Y37.2688 F120.00
G01 X49.6810 Y37.2590 F120.00
G01 X49.6829 Y37.2520 F120.00
G01 X49.6859 Y37.2452 F120.00
G01 X49.6898 Y37.2390 F120.00
G01 X49.6946 Y37.2334 F120.00
G01 X49.9994 Y36.9286 F120.00
G01 X50.0060 Y36.9231 F120.00
G01 X50.0134 Y36.9188 F120.00
G01 X50.0191 Y36.9165 F120.00
G01 X50.0238 Y36.9152 F120.00
G01 X50.0299 Y36.9142 F120.00
G01 X50.0348 Y36.9140 F120.00
G01 X51.9664 Y36.9140 F120.00
G01 X51.9750 Y36.9150 F120.00
G01 X51.9832 Y36.9174 F120.00
G01 X51.9909 Y36.9211 F120.00
G01 X51.9979 Y36.9261 F120.00
G01 X52.1137 Y37.0417 F120.00
G01 X53.6688 Y37.0417 F120.00
G01 X54.0061 Y36.7044 F120.00
G01 X54.0458 Y36.6685 F120.00
G01 X54.0878 Y36.6372 F120.00
G01 X54.1368 Y36.6077 F120.00
G01 X54.1887 Y36.5834 F120.00
G01 X54.2379 Y36.5658 F120.00
G01 X54.2887 Y36.5530 F120.00
G01 X54.3477 Y36.5443 F120.00
G01 X54.4000 Y36.5417 F120.00
G01 X93.2339 Y36.5417 F120.00
G01 X96.6308 Y33.1448 F120.00
G01 X96.6465 Y33.1188 F120.00
G01 X96.6777 Y33.0768 F120.00
G01 X96.7153 Y33.0353 F120.00
G01 X99.2537 Y30.4969 F120.00
G01 X99.2962 Y30.4586 F120.00
G01 X99.3383 Y30.4274 F120.00
G01 X99.3842 Y30.3999 F120.00
G01 X99.4348 Y30.3758 F120.00
G01 X99.4887 Y30.3567 F120.00
G01 X99.5395 Y30.3441 F120.00
G01 X99.5912 Y30.3363 F120.00
G01 X99.6472 Y30.3334 F120.00
G01 X101.5226 Y30.3333 F120.00
G01 X101.5227 Y30.1779 F120.00
G01 X101.5236 Y30.1706 F120.00
G01 X101.5255 Y30.1636 F120.00
G01 X101.5285 Y30.1568 F120.00
G01 X101.5317 Y30.1516 F120.00
G01 X101.5372 Y30.1450 F120.00
G01 X101.8429 Y29.8394 F120.00
G01 X101.8496 Y29.8340 F120.00
G01 X101.8571 Y29.8299 F120.00
G01 X101.8664 Y29.8268 F120.00
G01 X101.8749 Y29.8257 F120.00
G01 X103.8078 Y29.8256 F120.00
