(G-CODE GENERATED BY FLATCAM v8.994 - www.flatcam.org - Version Date: 2020/11/7)

(Name: pcb - CADCAM Bottom Copper.GBR_iso_combined_cnc)
(Type: G-code from Geometry)
(Units: MM)

(Created on Monday, 01 January 2024 at 01:34)

(This preprocessor is used with a motion controller loaded with GRBL firmware. )
(It is for the case when it is used together with a LASER connected on the SPINDLE connector.)

(Feedrate: 80.0 mm/min)
(Feedrate rapids: 1500.0 mm/min)

(Z Focus: 2.0 mm)
(Steps per circle: 64)
(Preprocessor Geometry: GRBL_laser)

(X range:   51.3324 ...  131.1676  mm)
(Y range:   68.3992 ...  171.6008  mm)

(Laser Power - Spindle Speed: 2500.0)

G21
G90
G17
G94

G01 F80.00

M5
G01 F80.00
G00 X51.5340 Y68.6008
G01 F60.00
M03 S2500.0
G01 F80.00
G01 X130.9660 Y68.6008 F80.00
G01 X130.9660 Y171.3992 F80.00
G01 X51.5340 Y171.3992 F80.00
G01 X51.5340 Y68.6008 F80.00
M5
G00 X57.0282 Y75.8229
G01 F60.00
M03 S2500.0
G01 F80.00
G01 X56.5263 Y75.8229 F80.00
G01 X56.5263 Y75.3896 F80.00
G01 X57.3896 Y74.5263 F80.00
G01 X57.8229 Y74.5263 F80.00
G01 X57.8229 Y75.0781 F80.00
G01 X57.8144 Y75.0796 F80.00
G01 X57.7251 Y75.1022 F80.00
G01 X57.6407 Y75.1325 F80.00
G01 X57.5574 Y75.1719 F80.00
G01 X57.4763 Y75.2207 F80.00
G01 X57.4043 Y75.2741 F80.00
G01 X57.3369 Y75.3352 F80.00
G01 X57.2741 Y75.4043 F80.00
G01 X57.2186 Y75.4793 F80.00
G01 X57.1719 Y75.5574 F80.00
G01 X57.1330 Y75.6395 F80.00
G01 X57.1018 Y75.7263 F80.00
G01 X57.0939 Y75.7572 F80.00
G01 X57.0282 Y75.8229 F80.00
M5
G00 X56.5263 Y76.3249
G01 F60.00
M03 S2500.0
G01 F80.00
G01 X56.5263 Y76.1771 F80.00
G01 X56.6741 Y76.1771 F80.00
G01 X56.5263 Y76.3249 F80.00
M5
G00 X57.8229 Y77.3259
G01 F60.00
M03 S2500.0
G01 F80.00
G01 X57.8229 Y77.4737 F80.00
G01 X57.6751 Y77.4737 F80.00
G01 X57.8229 Y77.3259 F80.00
M5
G00 X58.2428 Y76.9061
G01 F60.00
M03 S2500.0
G01 F80.00
G01 X58.2737 Y76.8982 F80.00
G01 X58.3593 Y76.8675 F80.00
G01 X58.4416 Y76.8287 F80.00
G01 X58.4690 Y76.8124 F80.00
G01 X59.2718 Y76.8124 F80.00
G01 X58.6104 Y77.4737 F80.00
G01 X58.1771 Y77.4737 F80.00
G01 X58.1771 Y76.9718 F80.00
G01 X58.2428 Y76.9061 F80.00
M5
G00 X58.1771 Y75.0781
G01 F60.00
M03 S2500.0
G01 F80.00
G01 X58.1771 Y74.5263 F80.00
G01 X58.6104 Y74.5263 F80.00
G01 X59.2718 Y75.1876 F80.00
G01 X58.4690 Y75.1876 F80.00
G01 X58.4416 Y75.1713 F80.00
G01 X58.3582 Y75.1320 F80.00
G01 X58.2726 Y75.1014 F80.00
G01 X58.1856 Y75.0796 F80.00
G01 X58.1771 Y75.0781 F80.00
M5
G00 X64.9840 Y78.9340
G01 F60.00
M03 S2500.0
G01 F80.00
G01 X67.0160 Y78.9340 F80.00
G01 X67.0221 Y78.9344 F80.00
G01 X67.0293 Y78.9358 F80.00
G01 X67.0374 Y78.9388 F80.00
G01 X67.0438 Y78.9424 F80.00
G01 X67.0505 Y78.9478 F80.00
G01 X67.0562 Y78.9542 F80.00
G01 X67.0601 Y78.9604 F80.00
G01 X67.0635 Y78.9683 F80.00
G01 X67.0653 Y78.9755 F80.00
G01 X67.0660 Y78.9840 F80.00
G01 X67.0660 Y79.1876 F80.00
G01 X70.0650 Y79.1876 F80.00
G01 X70.1446 Y79.1915 F80.00
G01 X70.2235 Y79.2032 F80.00
G01 X70.3008 Y79.2226 F80.00
G01 X70.3759 Y79.2495 F80.00
G01 X70.4458 Y79.2824 F80.00
G01 X70.5163 Y79.3245 F80.00
G01 X70.5784 Y79.3705 F80.00
G01 X70.6411 Y79.4273 F80.00
G01 X70.6930 Y79.4846 F80.00
G01 X70.7405 Y79.5487 F80.00
G01 X70.7815 Y79.6170 F80.00
G01 X70.8155 Y79.6891 F80.00
G01 X70.8424 Y79.7642 F80.00
G01 X70.8618 Y79.8415 F80.00
G01 X70.8735 Y79.9204 F80.00
G01 X70.8774 Y79.9988 F80.00
G01 X70.8774 Y89.0535 F80.00
G01 X73.4315 Y91.6076 F80.00
G01 X76.6140 Y91.6076 F80.00
G01 X76.6141 Y91.4523 F80.00
G01 X76.6147 Y91.4463 F80.00
G01 X76.6165 Y91.4391 F80.00
G01 X76.6188 Y91.4334 F80.00
G01 X76.6224 Y91.4270 F80.00
G01 X76.6286 Y91.4194 F80.00
G01 X76.9334 Y91.1146 F80.00
G01 X76.9390 Y91.1098 F80.00
G01 X76.9442 Y91.1065 F80.00
G01 X76.9497 Y91.1038 F80.00
G01 X76.9555 Y91.1018 F80.00
G01 X76.9615 Y91.1005 F80.00
G01 X76.9688 Y91.1000 F80.00
G01 X78.3912 Y91.1000 F80.00
G01 X78.3985 Y91.1005 F80.00
G01 X78.4057 Y91.1022 F80.00
G01 X78.4126 Y91.1048 F80.00
G01 X78.4179 Y91.1078 F80.00
G01 X78.4229 Y91.1113 F80.00
G01 X78.4266 Y91.1146 F80.00
G01 X78.7322 Y91.4203 F80.00
G01 X78.7382 Y91.4281 F80.00
G01 X78.7426 Y91.4368 F80.00
G01 X78.7453 Y91.4463 F80.00
G01 X78.7460 Y91.4548 F80.00
G01 X78.7460 Y93.3852 F80.00
G01 X78.7455 Y93.3925 F80.00
G01 X78.7438 Y93.3997 F80.00
G01 X78.7412 Y93.4066 F80.00
G01 X78.7369 Y93.4140 F80.00
G01 X78.7322 Y93.4197 F80.00
G01 X78.4248 Y93.7270 F80.00
G01 X78.4169 Y93.7329 F80.00
G01 X78.4092 Y93.7366 F80.00
G01 X78.4010 Y93.7390 F80.00
G01 X78.3912 Y93.7400 F80.00
G01 X76.9688 Y93.7400 F80.00
G01 X76.9627 Y93.7396 F80.00
G01 X76.9555 Y93.7382 F80.00
G01 X76.9497 Y93.7362 F80.00
G01 X76.9431 Y93.7329 F80.00
G01 X76.9380 Y93.7294 F80.00
G01 X76.9334 Y93.7254 F80.00
G01 X76.6286 Y93.4206 F80.00
G01 X76.6224 Y93.4130 F80.00
G01 X76.6193 Y93.4077 F80.00
G01 X76.6165 Y93.4009 F80.00
G01 X76.6150 Y93.3950 F80.00
G01 X76.6141 Y93.3877 F80.00
G01 X76.6140 Y93.2324 F80.00
G01 X73.0938 Y93.2324 F80.00
G01 X73.0154 Y93.2285 F80.00
G01 X72.9365 Y93.2168 F80.00
G01 X72.8592 Y93.1974 F80.00
G01 X72.7841 Y93.1705 F80.00
G01 X72.7120 Y93.1365 F80.00
G01 X72.6437 Y93.0955 F80.00
G01 X72.5796 Y93.0480 F80.00
G01 X72.5214 Y92.9953 F80.00
G01 X69.4889 Y89.9627 F80.00
G01 X69.4370 Y89.9054 F80.00
G01 X69.3895 Y89.8413 F80.00
G01 X69.3485 Y89.7730 F80.00
G01 X69.3145 Y89.7009 F80.00
G01 X69.2876 Y89.6258 F80.00
G01 X69.2682 Y89.5485 F80.00
G01 X69.2565 Y89.4696 F80.00
G01 X69.2526 Y89.3912 F80.00
G01 X69.2526 Y80.8124 F80.00
G01 X67.0660 Y80.8124 F80.00
G01 X67.0660 Y81.0160 F80.00
G01 X67.0653 Y81.0245 F80.00
G01 X67.0635 Y81.0317 F80.00
G01 X67.0601 Y81.0396 F80.00
G01 X67.0554 Y81.0468 F80.00
G01 X67.0505 Y81.0522 F80.00
G01 X67.0438 Y81.0576 F80.00
G01 X67.0374 Y81.0612 F80.00
G01 X67.0305 Y81.0638 F80.00
G01 X67.0221 Y81.0656 F80.00
G01 X67.0160 Y81.0660 F80.00
G01 X64.9840 Y81.0660 F80.00
G01 X64.9742 Y81.0650 F80.00
G01 X64.9683 Y81.0635 F80.00
G01 X64.9637 Y81.0617 F80.00
G01 X64.9573 Y81.0582 F80.00
G01 X64.9513 Y81.0539 F80.00
G01 X64.9470 Y81.0496 F80.00
G01 X64.9424 Y81.0438 F80.00
G01 X64.9388 Y81.0374 F80.00
G01 X64.9362 Y81.0305 F80.00
G01 X64.9347 Y81.0245 F80.00
G01 X64.9340 Y81.0172 F80.00
G01 X64.9340 Y78.9840 F80.00
G01 X64.9350 Y78.9742 F80.00
G01 X64.9378 Y78.9649 F80.00
G01 X64.9424 Y78.9562 F80.00
G01 X64.9486 Y78.9486 F80.00
G01 X64.9562 Y78.9424 F80.00
G01 X64.9649 Y78.9378 F80.00
G01 X64.9742 Y78.9350 F80.00
G01 X64.9840 Y78.9340 F80.00
M5
G00 X71.2282 Y76.3124
G01 F60.00
M03 S2500.0
G01 F80.00
G01 X72.0310 Y76.3124 F80.00
G01 X72.0584 Y76.3287 F80.00
G01 X72.1418 Y76.3680 F80.00
G01 X72.2274 Y76.3986 F80.00
G01 X72.3144 Y76.4204 F80.00
G01 X72.3229 Y76.4219 F80.00
G01 X72.3229 Y76.9737 F80.00
G01 X71.8896 Y76.9737 F80.00
G01 X71.2282 Y76.3124 F80.00
M5
G00 X73.4061 Y75.7428
G01 F60.00
M03 S2500.0
G01 F80.00
G01 X73.4718 Y75.6771 F80.00
G01 X73.9737 Y75.6771 F80.00
G01 X73.9737 Y76.1104 F80.00
G01 X73.1104 Y76.9737 F80.00
G01 X72.6771 Y76.9737 F80.00
G01 X72.6771 Y76.4219 F80.00
G01 X72.6856 Y76.4204 F80.00
G01 X72.7749 Y76.3978 F80.00
G01 X72.8593 Y76.3675 F80.00
G01 X72.9426 Y76.3281 F80.00
G01 X73.0237 Y76.2793 F80.00
G01 X73.0957 Y76.2259 F80.00
G01 X73.1631 Y76.1648 F80.00
G01 X73.2274 Y76.0938 F80.00
G01 X73.2807 Y76.0217 F80.00
G01 X73.3275 Y75.9437 F80.00
G01 X73.3680 Y75.8582 F80.00
G01 X73.3982 Y75.7737 F80.00
G01 X73.4061 Y75.7428 F80.00
M5
G00 X73.9737 Y75.1751
G01 F60.00
M03 S2500.0
G01 F80.00
G01 X73.9737 Y75.3229 F80.00
G01 X73.8259 Y75.3229 F80.00
G01 X73.9737 Y75.1751 F80.00
M5
G00 X72.8249 Y74.0263
G01 F60.00
M03 S2500.0
G01 F80.00
G01 X72.6771 Y74.1741 F80.00
G01 X72.6771 Y74.0263 F80.00
G01 X72.8249 Y74.0263 F80.00
M5
G00 X72.3229 Y74.0263
G01 F60.00
M03 S2500.0
G01 F80.00
G01 X72.3229 Y74.5282 F80.00
G01 X72.2572 Y74.5939 F80.00
G01 X72.2263 Y74.6018 F80.00
G01 X72.1407 Y74.6325 F80.00
G01 X72.0584 Y74.6713 F80.00
G01 X72.0310 Y74.6876 F80.00
G01 X71.2282 Y74.6876 F80.00
G01 X71.8896 Y74.0263 F80.00
G01 X72.3229 Y74.0263 F80.00
M5
G00 X77.4340 Y80.5160
G01 F60.00
M03 S2500.0
G01 F80.00
G01 X77.4340 Y78.4828 F80.00
G01 X77.4350 Y78.4742 F80.00
G01 X77.4369 Y78.4672 F80.00
G01 X77.4405 Y78.4594 F80.00
G01 X77.4453 Y78.4523 F80.00
G01 X77.4513 Y78.4461 F80.00
G01 X77.4583 Y78.4411 F80.00
G01 X77.4660 Y78.4374 F80.00
G01 X77.4730 Y78.4352 F80.00
G01 X77.4791 Y78.4342 F80.00
G01 X77.4840 Y78.4340 F80.00
G01 X79.5160 Y78.4340 F80.00
G01 X79.5221 Y78.4344 F80.00
G01 X79.5293 Y78.4358 F80.00
G01 X79.5374 Y78.4388 F80.00
G01 X79.5438 Y78.4424 F80.00
G01 X79.5505 Y78.4478 F80.00
G01 X79.5562 Y78.4542 F80.00
G01 X79.5601 Y78.4604 F80.00
G01 X79.5635 Y78.4683 F80.00
G01 X79.5653 Y78.4755 F80.00
G01 X79.5660 Y78.4840 F80.00
G01 X79.5660 Y78.6876 F80.00
G01 X82.1300 Y78.6876 F80.00
G01 X82.2096 Y78.6915 F80.00
G01 X82.2861 Y78.7028 F80.00
G01 X82.3658 Y78.7226 F80.00
G01 X82.4431 Y78.7505 F80.00
G01 X82.5130 Y78.7835 F80.00
G01 X82.5793 Y78.8232 F80.00
G01 X82.6472 Y78.8736 F80.00
G01 X82.7044 Y78.9256 F80.00
G01 X82.7564 Y78.9828 F80.00
G01 X82.8055 Y79.0487 F80.00
G01 X82.8465 Y79.1170 F80.00
G01 X82.8795 Y79.1869 F80.00
G01 X82.9077 Y79.2654 F80.00
G01 X82.9268 Y79.3415 F80.00
G01 X82.9382 Y79.4179 F80.00
G01 X82.9424 Y79.5000 F80.00
G01 X82.9424 Y87.4800 F80.00
G01 X82.9383 Y87.5608 F80.00
G01 X82.9268 Y87.6385 F80.00
G01 X82.9081 Y87.7135 F80.00
G01 X82.8805 Y87.7909 F80.00
G01 X82.8465 Y87.8630 F80.00
G01 X82.8068 Y87.9293 F80.00
G01 X82.7572 Y87.9963 F80.00
G01 X82.7044 Y88.0544 F80.00
G01 X81.0324 Y89.7265 F80.00
G01 X81.0324 Y91.1805 F80.00
G01 X81.2722 Y91.4203 F80.00
G01 X81.2776 Y91.4270 F80.00
G01 X81.2817 Y91.4345 F80.00
G01 X81.2845 Y91.4427 F80.00
G01 X81.2859 Y91.4511 F80.00
G01 X81.2860 Y93.3864 F80.00
G01 X81.2850 Y93.3950 F80.00
G01 X81.2822 Y93.4043 F80.00
G01 X81.2782 Y93.4119 F80.00
G01 X81.2722 Y93.4197 F80.00
G01 X80.9657 Y93.7262 F80.00
G01 X80.9610 Y93.7302 F80.00
G01 X80.9558 Y93.7335 F80.00
G01 X80.9503 Y93.7362 F80.00
G01 X80.9445 Y93.7382 F80.00
G01 X80.9385 Y93.7395 F80.00
G01 X80.9312 Y93.7400 F80.00
G01 X79.5088 Y93.7400 F80.00
G01 X79.5003 Y93.7393 F80.00
G01 X79.4931 Y93.7375 F80.00
G01 X79.4863 Y93.7347 F80.00
G01 X79.4800 Y93.7309 F80.00
G01 X79.4743 Y93.7262 F80.00
G01 X79.1686 Y93.4206 F80.00
G01 X79.1646 Y93.4160 F80.00
G01 X79.1599 Y93.4088 F80.00
G01 X79.1569 Y93.4020 F80.00
G01 X79.1547 Y93.3937 F80.00
G01 X79.1540 Y93.3852 F80.00
G01 X79.1540 Y91.4536 F80.00
G01 X79.1550 Y91.4450 F80.00
G01 X79.1574 Y91.4368 F80.00
G01 X79.1618 Y91.4281 F80.00
G01 X79.1670 Y91.4212 F80.00
G01 X79.4076 Y91.1805 F80.00
G01 X79.4077 Y89.3875 F80.00
G01 X79.4118 Y89.3079 F80.00
G01 X79.4232 Y89.2315 F80.00
G01 X79.4419 Y89.1565 F80.00
G01 X79.4695 Y89.0791 F80.00
G01 X79.5030 Y89.0081 F80.00
G01 X79.5459 Y88.9367 F80.00
G01 X79.5920 Y88.8746 F80.00
G01 X79.6447 Y88.8164 F80.00
G01 X81.3176 Y87.1435 F80.00
G01 X81.3176 Y80.3124 F80.00
G01 X79.5660 Y80.3124 F80.00
G01 X79.5660 Y80.5160 F80.00
G01 X79.5650 Y80.5258 F80.00
G01 X79.5626 Y80.5340 F80.00
G01 X79.5595 Y80.5406 F80.00
G01 X79.5547 Y80.5477 F80.00
G01 X79.5487 Y80.5539 F80.00
G01 X79.5417 Y80.5589 F80.00
G01 X79.5340 Y80.5626 F80.00
G01 X79.5270 Y80.5648 F80.00
G01 X79.5185 Y80.5659 F80.00
G01 X77.4828 Y80.5660 F80.00
G01 X77.4730 Y80.5648 F80.00
G01 X77.4637 Y80.5617 F80.00
G01 X77.4552 Y80.5569 F80.00
G01 X77.4478 Y80.5505 F80.00
G01 X77.4418 Y80.5427 F80.00
G01 X77.4374 Y80.5340 F80.00
G01 X77.4350 Y80.5258 F80.00
G01 X77.4340 Y80.5160 F80.00
M5
G00 X71.6876 Y85.1910
G01 F60.00
M03 S2500.0
G01 F80.00
G01 X71.6876 Y82.0400 F80.00
G01 X71.6917 Y81.9592 F80.00
G01 X71.7038 Y81.8791 F80.00
G01 X71.7226 Y81.8042 F80.00
G01 X71.7486 Y81.7314 F80.00
G01 X71.7835 Y81.6570 F80.00
G01 X71.8245 Y81.5887 F80.00
G01 X71.8720 Y81.5246 F80.00
G01 X71.9273 Y81.4639 F80.00
G01 X71.9846 Y81.4120 F80.00
G01 X72.0467 Y81.3659 F80.00
G01 X72.1170 Y81.3235 F80.00
G01 X72.1891 Y81.2895 F80.00
G01 X72.2665 Y81.2619 F80.00
G01 X72.3415 Y81.2432 F80.00
G01 X72.4179 Y81.2318 F80.00
G01 X72.4988 Y81.2276 F80.00
G01 X77.4340 Y81.2276 F80.00
G01 X77.4340 Y81.0240 F80.00
G01 X77.4347 Y81.0155 F80.00
G01 X77.4369 Y81.0072 F80.00
G01 X77.4405 Y80.9994 F80.00
G01 X77.4453 Y80.9923 F80.00
G01 X77.4504 Y80.9870 F80.00
G01 X77.4562 Y80.9824 F80.00
G01 X77.4637 Y80.9783 F80.00
G01 X77.4719 Y80.9755 F80.00
G01 X77.4791 Y80.9742 F80.00
G01 X79.5172 Y80.9740 F80.00
G01 X79.5233 Y80.9745 F80.00
G01 X79.5305 Y80.9762 F80.00
G01 X79.5363 Y80.9783 F80.00
G01 X79.5427 Y80.9818 F80.00
G01 X79.5487 Y80.9861 F80.00
G01 X79.5530 Y80.9904 F80.00
G01 X79.5569 Y80.9952 F80.00
G01 X79.5601 Y81.0004 F80.00
G01 X79.5626 Y81.0060 F80.00
G01 X79.5645 Y81.0119 F80.00
G01 X79.5656 Y81.0179 F80.00
G01 X79.5660 Y81.0240 F80.00
G01 X79.5660 Y83.0560 F80.00
G01 X79.5655 Y83.0633 F80.00
G01 X79.5642 Y83.0693 F80.00
G01 X79.5617 Y83.0763 F80.00
G01 X79.5589 Y83.0817 F80.00
G01 X79.5554 Y83.0868 F80.00
G01 X79.5505 Y83.0922 F80.00
G01 X79.5448 Y83.0969 F80.00
G01 X79.5396 Y83.1001 F80.00
G01 X79.5340 Y83.1026 F80.00
G01 X79.5281 Y83.1045 F80.00
G01 X79.5221 Y83.1056 F80.00
G01 X79.5160 Y83.1060 F80.00
G01 X77.4840 Y83.1060 F80.00
G01 X77.4779 Y83.1056 F80.00
G01 X77.4707 Y83.1042 F80.00
G01 X77.4626 Y83.1012 F80.00
G01 X77.4562 Y83.0976 F80.00
G01 X77.4495 Y83.0922 F80.00
G01 X77.4438 Y83.0858 F80.00
G01 X77.4399 Y83.0796 F80.00
G01 X77.4365 Y83.0717 F80.00
G01 X77.4347 Y83.0645 F80.00
G01 X77.4340 Y83.0560 F80.00
G01 X77.4340 Y82.8524 F80.00
G01 X73.3124 Y82.8524 F80.00
G01 X73.3124 Y85.1910 F80.00
G01 X73.3287 Y85.2184 F80.00
G01 X73.3670 Y85.2995 F80.00
G01 X73.3989 Y85.3886 F80.00
G01 X73.4210 Y85.4768 F80.00
G01 X73.4342 Y85.5655 F80.00
G01 X73.4390 Y85.6600 F80.00
G01 X73.4342 Y85.7545 F80.00
G01 X73.4210 Y85.8432 F80.00
G01 X73.3986 Y85.9326 F80.00
G01 X73.3675 Y86.0193 F80.00
G01 X73.3292 Y86.1004 F80.00
G01 X73.2801 Y86.1827 F80.00
G01 X73.2259 Y86.2557 F80.00
G01 X73.1640 Y86.3240 F80.00
G01 X73.0957 Y86.3859 F80.00
G01 X73.0217 Y86.4407 F80.00
G01 X72.9426 Y86.4881 F80.00
G01 X72.8593 Y86.5275 F80.00
G01 X72.7726 Y86.5586 F80.00
G01 X72.6832 Y86.5810 F80.00
G01 X72.5920 Y86.5945 F80.00
G01 X72.5000 Y86.5990 F80.00
G01 X72.4080 Y86.5945 F80.00
G01 X72.3168 Y86.5810 F80.00
G01 X72.2274 Y86.5586 F80.00
G01 X72.1407 Y86.5275 F80.00
G01 X72.0574 Y86.4881 F80.00
G01 X71.9793 Y86.4414 F80.00
G01 X71.9043 Y86.3859 F80.00
G01 X71.8360 Y86.3240 F80.00
G01 X71.7741 Y86.2557 F80.00
G01 X71.7193 Y86.1817 F80.00
G01 X71.6719 Y86.1026 F80.00
G01 X71.6325 Y86.0193 F80.00
G01 X71.6014 Y85.9326 F80.00
G01 X71.5793 Y85.8444 F80.00
G01 X71.5655 Y85.7520 F80.00
G01 X71.5610 Y85.6600 F80.00
G01 X71.5655 Y85.5680 F80.00
G01 X71.5788 Y85.4780 F80.00
G01 X71.6014 Y85.3874 F80.00
G01 X71.6320 Y85.3018 F80.00
G01 X71.6713 Y85.2184 F80.00
G01 X71.6876 Y85.1910 F80.00
M5
G00 X81.6940 Y93.3852
G01 F60.00
M03 S2500.0
G01 F80.00
G01 X81.6940 Y91.4548 F80.00
G01 X81.6945 Y91.4475 F80.00
G01 X81.6965 Y91.4391 F80.00
G01 X81.6999 Y91.4312 F80.00
G01 X81.7046 Y91.4240 F80.00
G01 X81.7086 Y91.4194 F80.00
G01 X82.0143 Y91.1138 F80.00
G01 X82.0200 Y91.1091 F80.00
G01 X82.0263 Y91.1053 F80.00
G01 X82.0331 Y91.1025 F80.00
G01 X82.0403 Y91.1007 F80.00
G01 X82.0488 Y91.1000 F80.00
G01 X83.4761 Y91.1002 F80.00
G01 X83.4845 Y91.1018 F80.00
G01 X83.4926 Y91.1048 F80.00
G01 X83.5000 Y91.1091 F80.00
G01 X83.5057 Y91.1138 F80.00
G01 X83.8114 Y91.4194 F80.00
G01 X83.8176 Y91.4270 F80.00
G01 X83.8222 Y91.4357 F80.00
G01 X83.8248 Y91.4438 F80.00
G01 X83.8260 Y91.4536 F80.00
G01 X83.8259 Y93.3889 F80.00
