(G-CODE GENERATED BY FLATCAM v8.994 - www.flatcam.org - Version Date: 2020/11/7)

(Name: pcb - CADCAM Drill TOP-BOT Plated.GBR_iso_combined_cnc)
(Type: G-code from Geometry)
(Units: MM)

(Created on Monday, 01 January 2024 at 01:34)

(This preprocessor is used with a motion controller loaded with GRBL firmware. )
(It is for the case when it is used together with a LASER connected on the SPINDLE connector.)

(Feedrate: 80.0 mm/min)
(Feedrate rapids: 1500.0 mm/min)

(Z Focus: 2.0 mm)
(Steps per circle: 64)
(Preprocessor Geometry: GRBL_laser)

(X range:   57.5690 ...  120.6400  mm)
(Y range:   75.0690 ...  154.0500  mm)

(Laser Power - Spindle Speed: 2500.0)

G21
G90
G17
G94

G01 F80.00

M5
G01 F80.00
G00 X58.4309 Y76.0025
G01 F60.00
M03 S2500.0
G01 F80.00
G01 X58.4289 Y76.0422 F80.00
G01 X58.4227 Y76.0841 F80.00
G01 X58.4124 Y76.1251 F80.00
G01 X58.3982 Y76.1649 F80.00
G01 X58.3801 Y76.2032 F80.00
G01 X58.3584 Y76.2395 F80.00
G01 X58.3332 Y76.2734 F80.00
G01 X58.3048 Y76.3048 F80.00
G01 X58.2734 Y76.3332 F80.00
G01 X58.2395 Y76.3584 F80.00
G01 X58.2032 Y76.3801 F80.00
G01 X58.1649 Y76.3982 F80.00
G01 X58.1251 Y76.4124 F80.00
G01 X58.0841 Y76.4227 F80.00
G01 X58.0422 Y76.4289 F80.00
G01 X58.0000 Y76.4310 F80.00
G01 X57.9578 Y76.4289 F80.00
G01 X57.9159 Y76.4227 F80.00
G01 X57.8749 Y76.4124 F80.00
G01 X57.8351 Y76.3982 F80.00
G01 X57.7968 Y76.3801 F80.00
G01 X57.7605 Y76.3584 F80.00
G01 X57.7266 Y76.3332 F80.00
G01 X57.6952 Y76.3048 F80.00
G01 X57.6668 Y76.2734 F80.00
G01 X57.6416 Y76.2395 F80.00
G01 X57.6199 Y76.2032 F80.00
G01 X57.6018 Y76.1649 F80.00
G01 X57.5876 Y76.1251 F80.00
G01 X57.5773 Y76.0841 F80.00
G01 X57.5711 Y76.0422 F80.00
G01 X57.5690 Y76.0000 F80.00
G01 X57.5711 Y75.9578 F80.00
G01 X57.5773 Y75.9159 F80.00
G01 X57.5876 Y75.8749 F80.00
G01 X57.6018 Y75.8351 F80.00
G01 X57.6199 Y75.7968 F80.00
G01 X57.6416 Y75.7605 F80.00
G01 X57.6668 Y75.7266 F80.00
G01 X57.6952 Y75.6952 F80.00
G01 X57.7266 Y75.6668 F80.00
G01 X57.7605 Y75.6416 F80.00
G01 X57.7968 Y75.6199 F80.00
G01 X57.8351 Y75.6018 F80.00
G01 X57.8749 Y75.5876 F80.00
G01 X57.9159 Y75.5773 F80.00
G01 X57.9578 Y75.5711 F80.00
G01 X58.0000 Y75.5690 F80.00
G01 X58.0422 Y75.5711 F80.00
G01 X58.0841 Y75.5773 F80.00
G01 X58.1251 Y75.5876 F80.00
G01 X58.1649 Y75.6018 F80.00
G01 X58.2032 Y75.6199 F80.00
G01 X58.2395 Y75.6416 F80.00
G01 X58.2734 Y75.6668 F80.00
G01 X58.3048 Y75.6952 F80.00
G01 X58.3332 Y75.7266 F80.00
G01 X58.3584 Y75.7605 F80.00
G01 X58.3801 Y75.7968 F80.00
G01 X58.3982 Y75.8351 F80.00
G01 X58.4124 Y75.8749 F80.00
G01 X58.4227 Y75.9159 F80.00
G01 X58.4289 Y75.9578 F80.00
G01 X58.4309 Y76.0025 F80.00
M5
G00 X66.5579 Y80.0025
G01 F60.00
M03 S2500.0
G01 F80.00
G01 X66.5553 Y80.0547 F80.00
G01 X66.5473 Y80.1089 F80.00
G01 X66.5340 Y80.1620 F80.00
G01 X66.5155 Y80.2135 F80.00
G01 X66.4921 Y80.2630 F80.00
G01 X66.4640 Y80.3100 F80.00
G01 X66.4313 Y80.3540 F80.00
G01 X66.3946 Y80.3946 F80.00
G01 X66.3540 Y80.4313 F80.00
G01 X66.3100 Y80.4640 F80.00
G01 X66.2630 Y80.4921 F80.00
G01 X66.2135 Y80.5155 F80.00
G01 X66.1620 Y80.5340 F80.00
G01 X66.1089 Y80.5473 F80.00
G01 X66.0547 Y80.5553 F80.00
G01 X66.0000 Y80.5580 F80.00
G01 X65.9453 Y80.5553 F80.00
G01 X65.8911 Y80.5473 F80.00
G01 X65.8380 Y80.5340 F80.00
G01 X65.7865 Y80.5155 F80.00
G01 X65.7370 Y80.4921 F80.00
G01 X65.6900 Y80.4640 F80.00
G01 X65.6460 Y80.4313 F80.00
G01 X65.6054 Y80.3946 F80.00
G01 X65.5687 Y80.3540 F80.00
G01 X65.5360 Y80.3100 F80.00
G01 X65.5079 Y80.2630 F80.00
G01 X65.4845 Y80.2135 F80.00
G01 X65.4660 Y80.1620 F80.00
G01 X65.4527 Y80.1089 F80.00
G01 X65.4447 Y80.0547 F80.00
G01 X65.4420 Y80.0000 F80.00
G01 X65.4447 Y79.9453 F80.00
G01 X65.4527 Y79.8911 F80.00
G01 X65.4660 Y79.8380 F80.00
G01 X65.4845 Y79.7865 F80.00
G01 X65.5079 Y79.7370 F80.00
G01 X65.5360 Y79.6900 F80.00
G01 X65.5687 Y79.6460 F80.00
G01 X65.6054 Y79.6054 F80.00
G01 X65.6460 Y79.5687 F80.00
G01 X65.6900 Y79.5360 F80.00
G01 X65.7370 Y79.5079 F80.00
G01 X65.7865 Y79.4845 F80.00
G01 X65.8380 Y79.4660 F80.00
G01 X65.8911 Y79.4527 F80.00
G01 X65.9453 Y79.4447 F80.00
G01 X66.0000 Y79.4420 F80.00
G01 X66.0547 Y79.4447 F80.00
G01 X66.1089 Y79.4527 F80.00
G01 X66.1620 Y79.4660 F80.00
G01 X66.2135 Y79.4845 F80.00
G01 X66.2630 Y79.5079 F80.00
G01 X66.3100 Y79.5360 F80.00
G01 X66.3540 Y79.5687 F80.00
G01 X66.3946 Y79.6054 F80.00
G01 X66.4313 Y79.6460 F80.00
G01 X66.4640 Y79.6900 F80.00
G01 X66.4921 Y79.7370 F80.00
G01 X66.5155 Y79.7865 F80.00
G01 X66.5340 Y79.8380 F80.00
G01 X66.5473 Y79.8911 F80.00
G01 X66.5553 Y79.9453 F80.00
G01 X66.5579 Y80.0025 F80.00
M5
G00 X66.5579 Y82.5425
G01 F60.00
M03 S2500.0
G01 F80.00
G01 X66.5553 Y82.5947 F80.00
G01 X66.5473 Y82.6489 F80.00
G01 X66.5340 Y82.7020 F80.00
G01 X66.5155 Y82.7535 F80.00
G01 X66.4921 Y82.8030 F80.00
G01 X66.4640 Y82.8500 F80.00
G01 X66.4313 Y82.8940 F80.00
G01 X66.3946 Y82.9346 F80.00
G01 X66.3540 Y82.9713 F80.00
G01 X66.3100 Y83.0040 F80.00
G01 X66.2630 Y83.0321 F80.00
G01 X66.2135 Y83.0555 F80.00
G01 X66.1620 Y83.0740 F80.00
G01 X66.1089 Y83.0873 F80.00
G01 X66.0547 Y83.0953 F80.00
G01 X66.0000 Y83.0980 F80.00
G01 X65.9453 Y83.0953 F80.00
G01 X65.8911 Y83.0873 F80.00
G01 X65.8380 Y83.0740 F80.00
G01 X65.7865 Y83.0555 F80.00
G01 X65.7370 Y83.0321 F80.00
G01 X65.6900 Y83.0040 F80.00
G01 X65.6460 Y82.9713 F80.00
G01 X65.6054 Y82.9346 F80.00
G01 X65.5687 Y82.8940 F80.00
G01 X65.5360 Y82.8500 F80.00
G01 X65.5079 Y82.8030 F80.00
G01 X65.4845 Y82.7535 F80.00
G01 X65.4660 Y82.7020 F80.00
G01 X65.4527 Y82.6489 F80.00
G01 X65.4447 Y82.5947 F80.00
G01 X65.4420 Y82.5400 F80.00
G01 X65.4447 Y82.4853 F80.00
G01 X65.4527 Y82.4311 F80.00
G01 X65.4660 Y82.3780 F80.00
G01 X65.4845 Y82.3265 F80.00
G01 X65.5079 Y82.2770 F80.00
G01 X65.5360 Y82.2300 F80.00
G01 X65.5687 Y82.1860 F80.00
G01 X65.6054 Y82.1454 F80.00
G01 X65.6460 Y82.1087 F80.00
G01 X65.6900 Y82.0760 F80.00
G01 X65.7370 Y82.0479 F80.00
G01 X65.7865 Y82.0245 F80.00
G01 X65.8380 Y82.0060 F80.00
G01 X65.8911 Y81.9927 F80.00
G01 X65.9453 Y81.9847 F80.00
G01 X66.0000 Y81.9820 F80.00
G01 X66.0547 Y81.9847 F80.00
G01 X66.1089 Y81.9927 F80.00
G01 X66.1620 Y82.0060 F80.00
G01 X66.2135 Y82.0245 F80.00
G01 X66.2630 Y82.0479 F80.00
G01 X66.3100 Y82.0760 F80.00
G01 X66.3540 Y82.1087 F80.00
G01 X66.3946 Y82.1454 F80.00
G01 X66.4313 Y82.1860 F80.00
G01 X66.4640 Y82.2300 F80.00
G01 X66.4921 Y82.2770 F80.00
G01 X66.5155 Y82.3265 F80.00
G01 X66.5340 Y82.3780 F80.00
G01 X66.5473 Y82.4311 F80.00
G01 X66.5553 Y82.4853 F80.00
G01 X66.5579 Y82.5425 F80.00
M5
G00 X72.9309 Y85.6625
G01 F60.00
M03 S2500.0
G01 F80.00
G01 X72.9289 Y85.7022 F80.00
G01 X72.9227 Y85.7441 F80.00
G01 X72.9124 Y85.7851 F80.00
G01 X72.8982 Y85.8249 F80.00
G01 X72.8801 Y85.8632 F80.00
G01 X72.8584 Y85.8995 F80.00
G01 X72.8332 Y85.9334 F80.00
G01 X72.8048 Y85.9648 F80.00
G01 X72.7734 Y85.9932 F80.00
G01 X72.7395 Y86.0184 F80.00
G01 X72.7032 Y86.0401 F80.00
G01 X72.6649 Y86.0582 F80.00
G01 X72.6251 Y86.0724 F80.00
G01 X72.5841 Y86.0827 F80.00
G01 X72.5422 Y86.0889 F80.00
G01 X72.5000 Y86.0910 F80.00
G01 X72.4578 Y86.0889 F80.00
G01 X72.4159 Y86.0827 F80.00
G01 X72.3749 Y86.0724 F80.00
G01 X72.3351 Y86.0582 F80.00
G01 X72.2968 Y86.0401 F80.00
G01 X72.2605 Y86.0184 F80.00
G01 X72.2266 Y85.9932 F80.00
G01 X72.1952 Y85.9648 F80.00
G01 X72.1668 Y85.9334 F80.00
G01 X72.1416 Y85.8995 F80.00
G01 X72.1199 Y85.8632 F80.00
G01 X72.1018 Y85.8249 F80.00
G01 X72.0876 Y85.7851 F80.00
G01 X72.0773 Y85.7441 F80.00
G01 X72.0711 Y85.7022 F80.00
G01 X72.0690 Y85.6600 F80.00
G01 X72.0711 Y85.6178 F80.00
G01 X72.0773 Y85.5759 F80.00
G01 X72.0876 Y85.5349 F80.00
G01 X72.1018 Y85.4951 F80.00
G01 X72.1199 Y85.4568 F80.00
G01 X72.1416 Y85.4205 F80.00
G01 X72.1668 Y85.3866 F80.00
G01 X72.1952 Y85.3552 F80.00
G01 X72.2266 Y85.3268 F80.00
G01 X72.2605 Y85.3016 F80.00
G01 X72.2968 Y85.2799 F80.00
G01 X72.3351 Y85.2618 F80.00
G01 X72.3749 Y85.2476 F80.00
G01 X72.4159 Y85.2373 F80.00
G01 X72.4578 Y85.2311 F80.00
G01 X72.5000 Y85.2290 F80.00
G01 X72.5422 Y85.2311 F80.00
G01 X72.5841 Y85.2373 F80.00
G01 X72.6251 Y85.2476 F80.00
G01 X72.6649 Y85.2618 F80.00
G01 X72.7032 Y85.2799 F80.00
G01 X72.7395 Y85.3016 F80.00
G01 X72.7734 Y85.3268 F80.00
G01 X72.8048 Y85.3552 F80.00
G01 X72.8332 Y85.3866 F80.00
G01 X72.8584 Y85.4205 F80.00
G01 X72.8801 Y85.4568 F80.00
G01 X72.8982 Y85.4951 F80.00
G01 X72.9124 Y85.5349 F80.00
G01 X72.9227 Y85.5759 F80.00
G01 X72.9289 Y85.6178 F80.00
G01 X72.9309 Y85.6625 F80.00
M5
G00 X79.0579 Y82.0425
G01 F60.00
M03 S2500.0
G01 F80.00
G01 X79.0553 Y82.0947 F80.00
G01 X79.0473 Y82.1489 F80.00
G01 X79.0340 Y82.2020 F80.00
G01 X79.0155 Y82.2535 F80.00
G01 X78.9921 Y82.3030 F80.00
G01 X78.9640 Y82.3500 F80.00
G01 X78.9313 Y82.3940 F80.00
G01 X78.8946 Y82.4346 F80.00
G01 X78.8540 Y82.4713 F80.00
G01 X78.8100 Y82.5040 F80.00
G01 X78.7630 Y82.5321 F80.00
G01 X78.7135 Y82.5555 F80.00
G01 X78.6620 Y82.5740 F80.00
G01 X78.6089 Y82.5873 F80.00
G01 X78.5547 Y82.5953 F80.00
G01 X78.5000 Y82.5980 F80.00
G01 X78.4453 Y82.5953 F80.00
G01 X78.3911 Y82.5873 F80.00
G01 X78.3380 Y82.5740 F80.00
G01 X78.2865 Y82.5555 F80.00
G01 X78.2370 Y82.5321 F80.00
G01 X78.1900 Y82.5040 F80.00
G01 X78.1460 Y82.4713 F80.00
G01 X78.1054 Y82.4346 F80.00
G01 X78.0687 Y82.3940 F80.00
G01 X78.0360 Y82.3500 F80.00
G01 X78.0079 Y82.3030 F80.00
G01 X77.9845 Y82.2535 F80.00
G01 X77.9660 Y82.2020 F80.00
G01 X77.9527 Y82.1489 F80.00
G01 X77.9447 Y82.0947 F80.00
G01 X77.9420 Y82.0400 F80.00
G01 X77.9447 Y81.9853 F80.00
G01 X77.9527 Y81.9311 F80.00
G01 X77.9660 Y81.8780 F80.00
G01 X77.9845 Y81.8265 F80.00
G01 X78.0079 Y81.7770 F80.00
G01 X78.0360 Y81.7300 F80.00
G01 X78.0687 Y81.6860 F80.00
G01 X78.1054 Y81.6454 F80.00
G01 X78.1460 Y81.6087 F80.00
G01 X78.1900 Y81.5760 F80.00
G01 X78.2370 Y81.5479 F80.00
G01 X78.2865 Y81.5245 F80.00
G01 X78.3380 Y81.5060 F80.00
G01 X78.3911 Y81.4927 F80.00
G01 X78.4453 Y81.4847 F80.00
G01 X78.5000 Y81.4820 F80.00
G01 X78.5547 Y81.4847 F80.00
G01 X78.6089 Y81.4927 F80.00
G01 X78.6620 Y81.5060 F80.00
G01 X78.7135 Y81.5245 F80.00
G01 X78.7630 Y81.5479 F80.00
G01 X78.8100 Y81.5760 F80.00
G01 X78.8540 Y81.6087 F80.00
G01 X78.8946 Y81.6454 F80.00
G01 X78.9313 Y81.6860 F80.00
G01 X78.9640 Y81.7300 F80.00
G01 X78.9921 Y81.7770 F80.00
G01 X79.0155 Y81.8265 F80.00
G01 X79.0340 Y81.8780 F80.00
G01 X79.0473 Y81.9311 F80.00
G01 X79.0553 Y81.9853 F80.00
G01 X79.0579 Y82.0425 F80.00
M5
G00 X79.0579 Y79.5025
G01 F60.00
M03 S2500.0
G01 F80.00
G01 X79.0553 Y79.5547 F80.00
G01 X79.0473 Y79.6089 F80.00
G01 X79.0340 Y79.6620 F80.00
G01 X79.0155 Y79.7135 F80.00
G01 X78.9921 Y79.7630 F80.00
G01 X78.9640 Y79.8100 F80.00
G01 X78.9313 Y79.8540 F80.00
G01 X78.8946 Y79.8946 F80.00
G01 X78.8540 Y79.9313 F80.00
G01 X78.8100 Y79.9640 F80.00
G01 X78.7630 Y79.9921 F80.00
G01 X78.7135 Y80.0155 F80.00
G01 X78.6620 Y80.0340 F80.00
G01 X78.6089 Y80.0473 F80.00
G01 X78.5547 Y80.0553 F80.00
G01 X78.5000 Y80.0580 F80.00
G01 X78.4453 Y80.0553 F80.00
G01 X78.3911 Y80.0473 F80.00
G01 X78.3380 Y80.0340 F80.00
G01 X78.2865 Y80.0155 F80.00
G01 X78.2370 Y79.9921 F80.00
G01 X78.1900 Y79.9640 F80.00
G01 X78.1460 Y79.9313 F80.00
G01 X78.1054 Y79.8946 F80.00
G01 X78.0687 Y79.8540 F80.00
G01 X78.0360 Y79.8100 F80.00
G01 X78.0079 Y79.7630 F80.00
G01 X77.9845 Y79.7135 F80.00
G01 X77.9660 Y79.6620 F80.00
G01 X77.9527 Y79.6089 F80.00
G01 X77.9447 Y79.5547 F80.00
G01 X77.9420 Y79.5000 F80.00
G01 X77.9447 Y79.4453 F80.00
G01 X77.9527 Y79.3911 F80.00
G01 X77.9660 Y79.3380 F80.00
G01 X77.9845 Y79.2865 F80.00
G01 X78.0079 Y79.2370 F80.00
G01 X78.0360 Y79.1900 F80.00
G01 X78.0687 Y79.1460 F80.00
G01 X78.1054 Y79.1054 F80.00
G01 X78.1460 Y79.0687 F80.00
G01 X78.1900 Y79.0360 F80.00
G01 X78.2370 Y79.0079 F80.00
G01 X78.2865 Y78.9845 F80.00
G01 X78.3380 Y78.9660 F80.00
G01 X78.3911 Y78.9527 F80.00
G01 X78.4453 Y78.9447 F80.00
G01 X78.5000 Y78.9420 F80.00
G01 X78.5547 Y78.9447 F80.00
G01 X78.6089 Y78.9527 F80.00
G01 X78.6620 Y78.9660 F80.00
G01 X78.7135 Y78.9845 F80.00
G01 X78.7630 Y79.0079 F80.00
G01 X78.8100 Y79.0360 F80.00
G01 X78.8540 Y79.0687 F80.00
G01 X78.8946 Y79.1054 F80.00
G01 X78.9313 Y79.1460 F80.00
G01 X78.9640 Y79.1900 F80.00
G01 X78.9921 Y79.2370 F80.00
G01 X79.0155 Y79.2865 F80.00
G01 X79.0340 Y79.3380 F80.00
G01 X79.0473 Y79.3911 F80.00
G01 X79.0553 Y79.4453 F80.00
G01 X79.0579 Y79.5025 F80.00
M5
G00 X72.9309 Y75.5025
G01 F60.00
M03 S2500.0
G01 F80.00
G01 X72.9289 Y75.5422 F80.00
G01 X72.9227 Y75.5841 F80.00
G01 X72.9124 Y75.6251 F80.00
G01 X72.8982 Y75.6649 F80.00
G01 X72.8801 Y75.7032 F80.00
G01 X72.8584 Y75.7395 F80.00
G01 X72.8332 Y75.7734 F80.00
G01 X72.8048 Y75.8048 F80.00
G01 X72.7734 Y75.8332 F80.00
G01 X72.7395 Y75.8584 F80.00
G01 X72.7032 Y75.8801 F80.00
G01 X72.6649 Y75.8982 F80.00
G01 X72.6251 Y75.9124 F80.00
G01 X72.5841 Y75.9227 F80.00
G01 X72.5422 Y75.9289 F80.00
G01 X72.5000 Y75.9310 F80.00
G01 X72.4578 Y75.9289 F80.00
G01 X72.4159 Y75.9227 F80.00
G01 X72.3749 Y75.9124 F80.00
G01 X72.3351 Y75.8982 F80.00
G01 X72.2968 Y75.8801 F80.00
G01 X72.2605 Y75.8584 F80.00
G01 X72.2266 Y75.8332 F80.00
G01 X72.1952 Y75.8048 F80.00
G01 X72.1668 Y75.7734 F80.00
G01 X72.1416 Y75.7395 F80.00
G01 X72.1199 Y75.7032 F80.00
G01 X72.1018 Y75.6649 F80.00
G01 X72.0876 Y75.6251 F80.00
G01 X72.0773 Y75.5841 F80.00
G01 X72.0711 Y75.5422 F80.00
G01 X72.0690 Y75.5000 F80.00
G01 X72.0711 Y75.4578 F80.00
G01 X72.0773 Y75.4159 F80.00
G01 X72.0876 Y75.3749 F80.00
G01 X72.1018 Y75.3351 F80.00
G01 X72.1199 Y75.2968 F80.00
G01 X72.1416 Y75.2605 F80.00
G01 X72.1668 Y75.2266 F80.00
G01 X72.1952 Y75.1952 F80.00
G01 X72.2266 Y75.1668 F80.00
G01 X72.2605 Y75.1416 F80.00
G01 X72.2968 Y75.1199 F80.00
G01 X72.3351 Y75.1018 F80.00
G01 X72.3749 Y75.0876 F80.00
G01 X72.4159 Y75.0773 F80.00
G01 X72.4578 Y75.0711 F80.00
G01 X72.5000 Y75.0690 F80.00
G01 X72.5422 Y75.0711 F80.00
G01 X72.5841 Y75.0773 F80.00
G01 X72.6251 Y75.0876 F80.00
G01 X72.6649 Y75.1018 F80.00
G01 X72.7032 Y75.1199 F80.00
G01 X72.7395 Y75.1416 F80.00
G01 X72.7734 Y75.1668 F80.00
G01 X72.8048 Y75.1952 F80.00
G01 X72.8332 Y75.2266 F80.00
G01 X72.8584 Y75.2605 F80.00
G01 X72.8801 Y75.2968 F80.00
G01 X72.8982 Y75.3351 F80.00
G01 X72.9124 Y75.3749 F80.00
G01 X72.9227 Y75.4159 F80.00
G01 X72.9289 Y75.4578 F80.00
G01 X72.9309 Y75.5025 F80.00
M5
G00 X78.2299 Y92.4225
G01 F60.00
M03 S2500.0
G01 F80.00
G01 X78.2274 Y92.4739 F80.00
G01 X78.2194 Y92.5273 F80.00
G01 X78.2063 Y92.5797 F80.00
G01 X78.1881 Y92.6305 F80.00
G01 X78.1651 Y92.6793 F80.00
G01 X78.1373 Y92.7256 F80.00
G01 X78.1052 Y92.7689 F80.00
G01 X78.0689 Y92.8089 F80.00
G01 X78.0289 Y92.8452 F80.00
G01 X77.9856 Y92.8773 F80.00
G01 X77.9393 Y92.9051 F80.00
G01 X77.8905 Y92.9281 F80.00
G01 X77.8397 Y92.9463 F80.00
G01 X77.7873 Y92.9594 F80.00
G01 X77.7339 Y92.9674 F80.00
G01 X77.6800 Y92.9700 F80.00
G01 X77.6261 Y92.9674 F80.00
G01 X77.5727 Y92.9594 F80.00
G01 X77.5203 Y92.9463 F80.00
G01 X77.4695 Y92.9281 F80.00
G01 X77.4207 Y92.9051 F80.00
G01 X77.3744 Y92.8773 F80.00
G01 X77.3311 Y92.8452 F80.00
G01 X77.2911 Y92.8089 F80.00
G01 X77.2548 Y92.7689 F80.00
G01 X77.2227 Y92.7256 F80.00
G01 X77.1949 Y92.6793 F80.00
G01 X77.1719 Y92.6305 F80.00
G01 X77.1537 Y92.5797 F80.00
G01 X77.1406 Y92.5273 F80.00
G01 X77.1326 Y92.4739 F80.00
G01 X77.1300 Y92.4200 F80.00
G01 X77.1326 Y92.3661 F80.00
G01 X77.1406 Y92.3127 F80.00
G01 X77.1537 Y92.2603 F80.00
G01 X77.1719 Y92.2095 F80.00
G01 X77.1949 Y92.1607 F80.00
G01 X77.2227 Y92.1144 F80.00
G01 X77.2548 Y92.0711 F80.00
G01 X77.2911 Y92.0311 F80.00
G01 X77.3311 Y91.9948 F80.00
G01 X77.3744 Y91.9627 F80.00
G01 X77.4207 Y91.9349 F80.00
